;Generated by Cura LulzBot Edition GCodeWriter Version: 3.6.20
;FLAVOR:Marlin
;TIME:896
;Filament used: 0.387555m
;Layer height: 0.25
;Generated with Cura_SteamEngine 3.6.20
M82 ;absolute extrusion mode
;This G-Code has been generated specifically for the LulzBot Mini 2 with SE 0.5mm Tool Head
M73 P0                  ; clear GLCD progress bar
M75 					; Start GLCD Print Timer
G26 					; clear potential 'probe fail' condition
M107 					; disable fans
M420 S0                 ; disable leveling matrix
G90 					; absolute positioning
M82 					; set extruder to absolute mode
G92 E0 					; set extruder position to 0
M140 S60.0 	; start bed heating up
G28 					; home all axes
G0 X0 Y187 Z156 F200 			; move away from endstops
M117 Mini 2 Wiping...			; progress indicator message on LCD
M109 R140 	; soften filament before retraction
G1 E-15 F75 				; retract filament
M109 R140 	; wait for extruder to reach wiping temp
G1 X45 Y176 F11520 			; move above wiper pad
G1 Z0 F1200 				; push nozzle into wiper
G1 X45 Y178 Z-.5 F4000		; wiping
G1 X55 Y176 Z-.5 F4000		; wiping
G1 X45 Y177 Z0 F4000		; wiping
G1 X55 Y176 F4000		; wiping
G1 X45 Y178 F4000		; wiping
G1 X55 Y176 F4000		; wiping
G1 X45 Y178 F4000		; wiping
G1 X55 Y176 F4000		; wiping
G1 X60 Y178 F4000		; wiping
G1 X80 Y176 F4000		; wiping
G1 X60 Y178 F4000		; wiping
G1 X80 Y176 F4000		; wiping
G1 X60 Y178 F4000		; wiping
G1 X90 Y176 F4000		; wiping
G1 X80 Y178 F4000		; wiping
G1 X100 Y176 F4000		; wiping
G1 X80 Y178 F4000		; wiping
G1 X100 Y176 F4000		; wiping
G1 X80 Y178 F4000		; wiping
G1 X100 Y176 F4000		; wiping
G1 X110 Y178 F4000		; wiping
G1 X100 Y176 F4000		; wiping
G1 X110 Y178 F4000		; wiping
G1 X100 Y176 F4000		; wiping
G1 X110 Y178 F4000		; wiping
G1 X115 Y176 Z-0.5 F1000	; wiping
G1 Z10					; raise extruder
G28 X0 Y0				; home X and Y
M109 R140	; wait for extruder to reach probe temp
M204 S300				; set probing acceleration
G29					; start auto-leveling sequence
G28 					; home all axes
G29					; start auto-leveling sequence
M420 S1                     ; enable leveling matrix
M425 Z			     		; use measured Z backlash for compensation
M425 Z F1
;M425 Z F0		     		; turn off measured Z backlash compensation. (if activated in the quality settings, this command will automatically be ignored)
M204 S2000				; restore standard acceleration
G1 X5 Y5 Z10 F5000			; move up off last probe point
G4 S1					; pause
M400					; wait for moves to finish
M117 Heating...				; progress indicator message on LCD
M109 R210	; wait for extruder to reach initial printing temp
M190 S60.0 ; wait for bed to reach printing temp
M400                                      ; wait for moves to finish
G1 X2 Y2 Z2 F5000
M400
G1 Z2 E0 F75				; prime tiny bit of filment into the nozzle
M400                                      ; wait for moves to finish
G92 E0
G1 E5 F80
M400                                      ; wait for moves to finish
G92 E0
M117 Mini 2 Printing...		; progress indicator message on LCD
M221 S100 T0
G92 E0
G1 F600 E-1.75
;LAYER_COUNT:21
;LAYER:0
M107
;MESH:
G0 F2625 X62.5 Y77.75 Z0.25
;TYPE:WALL-INNER
G1 F600 E0.00157
G1 F900 X62.5 Y84.25 E0.12893
G1 X68.5 Y84.25 E0.2465
G1 X68.5 Y77.75 E0.37386
G1 X62.5 Y77.75 E0.49143
G0 F2625 X63 Y78.25
;TYPE:WALL-OUTER
G1 F900 X63 Y83.75 E0.59919
G1 X68 Y83.75 E0.69717
G1 X68 Y78.25 E0.80494
G1 X63 Y78.25 E0.90291
G0 F2625 X63 Y78.5
G0 X62.45 Y78.5
G0 X62.4 Y78.5
G0 X62.472 Y77.722
G0 X68.528 Y76.278
G0 X72.613 Y74.107
G0 X72.687 Y74.173
;TYPE:WALL-INNER
G1 F900 X72.31 Y74.72 E0.91592
G1 X72.074 Y75.34 E0.92892
G1 X72 Y75.955 E0.94106
G1 X72 Y86.045 E1.13877
G1 X72.074 Y86.66 E1.1509
G1 X72.31 Y87.28 E1.1639
G1 X72.687 Y87.827 E1.17692
G1 X73.185 Y88.267 E1.18994
G1 X73.774 Y88.577 E1.20298
G1 X74.419 Y88.735 E1.216
G1 X75.081 Y88.735 E1.22897
G1 X75.726 Y88.577 E1.24198
G1 X76.315 Y88.267 E1.25502
G1 X76.813 Y87.827 E1.26804
G1 X77.19 Y87.28 E1.28106
G1 X77.426 Y86.66 E1.29406
G1 X77.5 Y86.045 E1.3062
G1 X77.5 Y75.955 E1.5039
G1 X77.426 Y75.34 E1.51604
G1 X77.19 Y74.72 E1.52904
G1 X76.813 Y74.173 E1.54206
G1 X76.315 Y73.733 E1.55508
G1 X75.726 Y73.423 E1.56812
G1 X75.081 Y73.265 E1.58113
G1 X74.419 Y73.265 E1.5941
G1 X73.774 Y73.423 E1.60711
G1 X73.185 Y73.733 E1.62016
G1 X72.687 Y74.173 E1.63318
G0 F2625 X73.064 Y74.507
;TYPE:WALL-OUTER
G1 F900 X72.756 Y74.954 E1.64381
G1 X72.563 Y75.461 E1.65444
G1 X72.5 Y75.985 E1.66478
G1 X72.5 Y86.015 E1.86132
G1 X72.563 Y86.539 E1.87166
G1 X72.756 Y87.046 E1.88229
G1 X73.064 Y87.493 E1.89292
G1 X73.471 Y87.853 E1.90357
G1 X73.952 Y88.106 E1.91422
G1 X74.479 Y88.235 E1.92485
G1 X75.021 Y88.235 E1.93547
G1 X75.548 Y88.106 E1.9461
G1 X76.029 Y87.853 E1.95675
G1 X76.436 Y87.493 E1.9674
G1 X76.744 Y87.046 E1.97803
G1 X76.937 Y86.539 E1.98866
G1 X77 Y86.015 E1.99901
G1 X77 Y75.985 E2.19554
G1 X76.937 Y75.461 E2.20588
G1 X76.744 Y74.954 E2.21651
G1 X76.436 Y74.507 E2.22714
G1 X76.029 Y74.147 E2.23779
G1 X75.548 Y73.894 E2.24844
G1 X75.021 Y73.765 E2.25907
G1 X74.479 Y73.765 E2.26969
G1 X73.952 Y73.894 E2.28032
G1 X73.471 Y74.147 E2.29097
G1 X73.064 Y74.507 E2.30162
G0 F2625 X72.922 Y74.713
G0 X72.469 Y74.401
G0 X72.429 Y74.373
G0 X73.163 Y73.701
G0 X73.76 Y73.386
G0 X74.415 Y73.226
G0 X74.794 Y73.226
G0 X82.613 Y74.107
G0 X82.687 Y74.173
;TYPE:WALL-INNER
G1 F900 X82.31 Y74.72 E2.31464
G1 X82.074 Y75.34 E2.32763
G1 X82 Y75.955 E2.33977
G1 X82 Y86.045 E2.53748
G1 X82.074 Y86.66 E2.54962
G1 X82.31 Y87.28 E2.56262
G1 X82.687 Y87.827 E2.57563
G1 X83.185 Y88.267 E2.58865
G1 X83.774 Y88.577 E2.6017
G1 X84.419 Y88.735 E2.61471
G1 X85.081 Y88.735 E2.62768
G1 X85.726 Y88.577 E2.64069
G1 X86.315 Y88.267 E2.65373
G1 X86.813 Y87.827 E2.66675
G1 X87.19 Y87.28 E2.67977
G1 X87.426 Y86.66 E2.69277
G1 X87.5 Y86.045 E2.70491
G1 X87.5 Y75.955 E2.90261
G1 X87.426 Y75.34 E2.91475
G1 X87.19 Y74.72 E2.92775
G1 X86.813 Y74.173 E2.94077
G1 X86.315 Y73.733 E2.95379
G1 X85.726 Y73.423 E2.96683
G1 X85.081 Y73.265 E2.97984
G1 X84.419 Y73.265 E2.99281
G1 X83.774 Y73.423 E3.00583
G1 X83.185 Y73.733 E3.01887
G1 X82.687 Y74.173 E3.03189
G0 F2625 X83.064 Y74.507
;TYPE:WALL-OUTER
G1 F900 X82.756 Y74.954 E3.04253
G1 X82.563 Y75.461 E3.05316
G1 X82.5 Y75.985 E3.0635
G1 X82.5 Y86.015 E3.26003
G1 X82.563 Y86.539 E3.27037
G1 X82.756 Y87.046 E3.281
G1 X83.064 Y87.493 E3.29164
G1 X83.471 Y87.853 E3.30228
G1 X83.952 Y88.106 E3.31293
G1 X84.479 Y88.235 E3.32356
G1 X85.021 Y88.235 E3.33418
G1 X85.548 Y88.106 E3.34481
G1 X86.029 Y87.853 E3.35546
G1 X86.436 Y87.493 E3.36611
G1 X86.744 Y87.046 E3.37675
G1 X86.937 Y86.539 E3.38738
G1 X87 Y86.015 E3.39772
G1 X87 Y75.985 E3.59425
G1 X86.937 Y75.461 E3.60459
G1 X86.744 Y74.954 E3.61522
G1 X86.436 Y74.507 E3.62586
G1 X86.029 Y74.147 E3.6365
G1 X85.548 Y73.894 E3.64715
G1 X85.021 Y73.765 E3.65778
G1 X84.479 Y73.765 E3.6684
G1 X83.952 Y73.894 E3.67903
G1 X83.471 Y74.147 E3.68968
G1 X83.064 Y74.507 E3.70033
G0 F2625 X82.922 Y74.713
G0 X82.469 Y74.401
G0 X82.429 Y74.373
G0 X83.163 Y73.701
G0 X83.76 Y73.386
G0 X84.415 Y73.226
G0 X84.794 Y73.226
G0 X92.613 Y74.107
G0 X92.687 Y74.173
;TYPE:WALL-INNER
G1 F900 X92.31 Y74.72 E3.71335
G1 X92.074 Y75.34 E3.72635
G1 X92 Y75.955 E3.73848
G1 X92 Y86.045 E3.93619
G1 X92.074 Y86.66 E3.94833
G1 X92.31 Y87.28 E3.96133
G1 X92.687 Y87.827 E3.97434
G1 X93.185 Y88.267 E3.98737
G1 X93.774 Y88.577 E4.00041
G1 X94.419 Y88.735 E4.01342
G1 X95.081 Y88.735 E4.02639
G1 X95.726 Y88.577 E4.0394
G1 X96.315 Y88.267 E4.05244
G1 X96.813 Y87.827 E4.06547
G1 X97.19 Y87.28 E4.07848
G1 X97.426 Y86.66 E4.09148
G1 X97.5 Y86.045 E4.10362
G1 X97.5 Y75.955 E4.30133
G1 X97.426 Y75.34 E4.31346
G1 X97.19 Y74.72 E4.32646
G1 X96.813 Y74.173 E4.33948
G1 X96.315 Y73.733 E4.3525
G1 X95.726 Y73.423 E4.36554
G1 X95.081 Y73.265 E4.37855
G1 X94.419 Y73.265 E4.39153
G1 X93.774 Y73.423 E4.40454
G1 X93.185 Y73.733 E4.41758
G1 X92.687 Y74.173 E4.4306
G0 F2625 X93.064 Y74.507
;TYPE:WALL-OUTER
G1 F900 X92.756 Y74.954 E4.44124
G1 X92.563 Y75.461 E4.45187
G1 X92.5 Y75.985 E4.46221
G1 X92.5 Y86.015 E4.65874
G1 X92.563 Y86.539 E4.66908
G1 X92.756 Y87.046 E4.67971
G1 X93.064 Y87.493 E4.69035
G1 X93.471 Y87.853 E4.70099
G1 X93.952 Y88.106 E4.71164
G1 X94.479 Y88.235 E4.72227
G1 X95.021 Y88.235 E4.73289
G1 X95.548 Y88.106 E4.74353
G1 X96.029 Y87.853 E4.75418
G1 X96.436 Y87.493 E4.76482
G1 X96.744 Y87.046 E4.77546
G1 X96.937 Y86.539 E4.78609
G1 X97 Y86.015 E4.79643
G1 X97 Y75.985 E4.99296
G1 X96.937 Y75.461 E5.0033
G1 X96.744 Y74.954 E5.01393
G1 X96.436 Y74.507 E5.02457
G1 X96.029 Y74.147 E5.03522
G1 X95.548 Y73.894 E5.04586
G1 X95.021 Y73.765 E5.0565
G1 X94.479 Y73.765 E5.06712
G1 X93.952 Y73.894 E5.07775
G1 X93.471 Y74.147 E5.0884
G1 X93.064 Y74.507 E5.09904
G0 F2625 X92.922 Y74.713
G0 X92.469 Y74.401
G0 X92.429 Y74.373
G0 X93.163 Y73.701
G0 X93.76 Y73.386
G0 X94.29 Y73.257
G0 X100.93 Y72.82
G0 X101 Y72.75
;TYPE:WALL-INNER
G1 F900 X101 Y89.25 E5.42235
G1 X68.5 Y89.25 E6.05917
G1 X68.5 Y85.75 E6.12775
G1 X62.696 Y85.75 E6.24147
G1 X62.377 Y86.402 E6.25569
G1 X62.265 Y86.538 E6.25915
G1 X62.125 Y86.644 E6.26259
G1 X61.97 Y86.711 E6.26589
G1 X61.797 Y86.743 E6.26934
G1 X61.623 Y86.733 E6.27276
G1 X61.454 Y86.684 E6.27621
G1 X61.306 Y86.599 E6.27955
G1 X61.182 Y86.483 E6.28288
G1 X61.087 Y86.337 E6.28629
G1 X61.025 Y86.171 E6.28976
G1 X61 Y85.956 E6.294
G1 X61 Y76.044 E6.48822
G1 X61.025 Y75.829 E6.49246
G1 X61.087 Y75.663 E6.49594
G1 X61.182 Y75.517 E6.49935
G1 X61.306 Y75.401 E6.50268
G1 X61.454 Y75.316 E6.50602
G1 X61.623 Y75.267 E6.50947
G1 X61.797 Y75.257 E6.51288
G1 X61.97 Y75.289 E6.51633
G1 X62.125 Y75.356 E6.51964
G1 X62.266 Y75.463 E6.52311
G1 X62.378 Y75.598 E6.52654
G1 X62.696 Y76.25 E6.54076
G1 X68.5 Y76.25 E6.65448
G1 X68.5 Y72.75 E6.72306
G1 X101 Y72.75 E7.35988
G0 F2625 X101.5 Y72.25
;TYPE:WALL-OUTER
G1 F900 X101.5 Y89.75 E7.70278
G1 X68 Y89.75 E8.35919
G1 X68 Y86.25 E8.42777
G1 X63.008 Y86.25 E8.52558
G1 X62.8 Y86.675 E8.53486
G1 X62.613 Y86.902 E8.54062
G1 X62.382 Y87.077 E8.5463
G1 X62.116 Y87.193 E8.55198
G1 X61.83 Y87.245 E8.55768
G1 X61.537 Y87.229 E8.56343
G1 X61.259 Y87.148 E8.5691
G1 X61.007 Y87.003 E8.5748
G1 X60.796 Y86.806 E8.58046
G1 X60.637 Y86.563 E8.58615
G1 X60.535 Y86.286 E8.59193
G1 X60.5 Y85.988 E8.59781
G1 X60.5 Y76.012 E8.79328
G1 X60.535 Y75.714 E8.79916
G1 X60.637 Y75.437 E8.80495
G1 X60.796 Y75.194 E8.81064
G1 X61.007 Y74.997 E8.81629
G1 X61.259 Y74.852 E8.82199
G1 X61.537 Y74.771 E8.82766
G1 X61.83 Y74.755 E8.83341
G1 X62.116 Y74.807 E8.83911
G1 X62.382 Y74.923 E8.84479
G1 X62.613 Y75.098 E8.85047
G1 X62.8 Y75.324 E8.85622
G1 X63.008 Y75.75 E8.86551
G1 X68 Y75.75 E8.96332
G1 X68 Y72.25 E9.0319
G1 X101.5 Y72.25 E9.68831
G0 F2625 X101.5 Y72.5
G0 X100.95 Y72.8
G0 X100.774 Y73.196
;TYPE:SKIN
G1 F900 X100.551 Y72.974 E9.69448
G0 F2625 X99.844 Y72.974
G1 F900 X100.774 Y73.903 E9.72024
G0 F2625 X100.774 Y74.611
G1 F900 X99.137 Y72.974 E9.7656
G0 F2625 X98.43 Y72.974
G1 F900 X100.774 Y75.318 E9.83055
G0 F2625 X100.774 Y76.025
G1 F900 X97.723 Y72.974 E9.9151
G0 F2625 X97.016 Y72.974
G1 F900 X100.774 Y76.732 E10.01923
G0 F2625 X100.774 Y77.439
G1 F900 X96.309 Y72.974 E10.14296
G0 F2625 X95.737 Y73.109
G1 F900 X94.233 Y73.02 E10.16539
G1 X92.449 Y73.358 E10.19242
G0 F2625 X92.472 Y74.087
G1 F900 X91.359 Y72.974 E10.22327
G0 F2625 X90.652 Y72.974
G1 F900 X92.184 Y74.506 E10.26572
G0 F2625 X91.964 Y74.993
G1 F900 X89.945 Y72.974 E10.32167
G0 F2625 X89.238 Y72.974
G1 F900 X91.82 Y75.557 E10.39323
G0 F2625 X91.774 Y76.218
G1 F900 X88.531 Y72.974 E10.48311
G0 F2625 X87.824 Y72.974
G1 F900 X91.774 Y76.925 E10.59258
G0 F2625 X91.774 Y77.632
G1 F900 X87.116 Y72.974 E10.72165
G0 F2625 X86.409 Y72.974
G1 F900 X91.774 Y78.339 E10.87032
G0 F2625 X91.774 Y79.046
G1 F900 X87.419 Y74.691 E10.991
G1 X87.331 Y74.603
G0 F2625 X87.691 Y75.671
G1 F900 X91.774 Y79.753 E11.10413
G0 F2625 X91.774 Y80.46
G1 F900 X87.724 Y76.41 E11.21636
G0 F2625 X87.724 Y77.117
G1 F900 X91.774 Y81.168 E11.3286
G0 F2625 X91.774 Y81.875
G1 F900 X87.724 Y77.824 E11.44084
G0 F2625 X87.724 Y78.531
G1 F900 X91.774 Y82.582 E11.55308
G0 F2625 X91.774 Y83.289
G1 F900 X87.724 Y79.239 E11.66531
G0 F2625 X87.724 Y79.946
G1 F900 X91.774 Y83.996 E11.77754
G0 F2625 X91.774 Y84.703
G1 F900 X87.724 Y80.653 E11.88977
G0 F2625 X87.724 Y81.36
G1 F900 X91.774 Y85.41 E12.00199
G0 F2625 X91.783 Y86.126
G1 F900 X87.724 Y82.067 E12.11447
G0 F2625 X87.724 Y82.774
G1 F900 X91.969 Y87.02 E12.23212
G1 X92.057 Y87.108
G0 F2625 X91.853 Y89.024
G1 F900 X87.724 Y84.895 E12.34653
G0 F2625 X87.724 Y84.188
G1 F900 X92.56 Y89.024 E12.48054
G0 F2625 X93.267 Y89.024
G1 F900 X87.724 Y83.481 E12.63414
G1 X87.636 Y83.393
G0 F2625 X87.724 Y85.603
G1 F900 X91.146 Y89.024 E12.72895
G0 F2625 X90.438 Y89.024
G1 F900 X87.696 Y86.282 E12.80493
G0 F2625 X87.583 Y86.876
G1 F900 X89.731 Y89.024 E12.86446
G0 F2625 X89.024 Y89.024
G1 F900 X87.387 Y87.387 E12.90982
G0 F2625 X87.098 Y87.805
G1 F900 X88.317 Y89.024 E12.9436
G0 F2625 X87.61 Y89.024
G1 F900 X86.759 Y88.173 E12.96718
G0 F2625 X86.636 Y88.757
G1 F900 X86.051 Y88.88 E12.97364
G1 X83.98 Y88.929 E12.99602
G0 F2625 X83.367 Y89.024
G1 F900 X77.724 Y83.381 E13.15239
G0 F2625 X77.724 Y82.674
G1 F900 X81.909 Y86.858 E13.26835
G0 F2625 X81.775 Y86.018
G1 F900 X77.724 Y81.967 E13.3806
G0 F2625 X77.724 Y81.26
G1 F900 X81.775 Y85.311 E13.49286
G0 F2625 X81.775 Y84.603
G1 F900 X77.724 Y80.552 E13.60511
G0 F2625 X77.724 Y79.845
G1 F900 X81.775 Y83.896 E13.71737
G0 F2625 X81.775 Y83.189
G1 F900 X77.724 Y79.138 E13.82962
G0 F2625 X77.724 Y78.431
G1 F900 X81.775 Y82.482 E13.94188
G0 F2625 X81.775 Y81.775
G1 F900 X77.724 Y77.724 E14.05413
G0 F2625 X77.724 Y77.017
G1 F900 X81.775 Y81.068 E14.16639
G0 F2625 X81.774 Y80.36
G1 F900 X77.724 Y76.31 E14.27862
G0 F2625 X77.677 Y75.556
G1 F900 X81.774 Y79.653 E14.39215
G0 F2625 X81.774 Y78.946
G1 F900 X77.271 Y74.443 E14.51693
G1 X77.183 Y74.355
G0 F2625 X76.3 Y73.471
G0 X76.051 Y73.222
G1 F900 X75.137 Y73.015 E14.53081
G1 X72.603 Y73.31 E14.56859
G0 F2625 X71.56 Y72.974
G1 F900 X72.565 Y73.979 E14.59644
G0 F2625 X72.266 Y74.387
G1 F900 X70.853 Y72.974 E14.63559
G0 F2625 X70.146 Y72.974
G1 F900 X72.02 Y74.848 E14.68752
G0 F2625 X71.842 Y75.378
G1 F900 X69.439 Y72.974 E14.75412
G0 F2625 X68.732 Y72.974
G1 F900 X71.774 Y76.017 E14.83843
G0 F2625 X71.774 Y76.724
G1 F900 X68.724 Y73.674 E14.92295
G0 F2625 X68.724 Y74.381
G1 F900 X71.774 Y77.431 E15.00747
G0 F2625 X71.774 Y78.138
G1 F900 X68.724 Y75.088 E15.09198
G0 F2625 X68.724 Y75.795
G1 F900 X71.774 Y78.845 E15.1765
G0 F2625 X71.774 Y79.553
G1 F900 X68.696 Y76.474 E15.26181
G1 X68.608 Y76.386
G0 F2625 X68.331 Y77.524
G1 F900 X67.281 Y76.474 E15.2909
G0 F2625 X66.574 Y76.474
G1 F900 X67.624 Y77.524 E15.32
G0 F2625 X66.917 Y77.524
G1 F900 X65.867 Y76.474 E15.3491
G0 F2625 X65.16 Y76.474
G1 F900 X66.21 Y77.524 E15.37819
G1 X66.298 Y77.612
G0 F2625 X67.989 Y76.474
G1 F900 X71.774 Y80.26 E15.48309
G0 F2625 X71.774 Y80.967
G1 F900 X68.725 Y77.917 E15.56759
G0 F2625 X68.725 Y78.624
G1 F900 X71.774 Y81.674 E15.6521
G0 F2625 X71.774 Y82.381
G1 F900 X68.725 Y79.331 E15.7366
G0 F2625 X68.725 Y80.038
G1 F900 X71.774 Y83.088 E15.8211
G0 F2625 X71.774 Y83.795
G1 F900 X68.725 Y80.745 E15.90561
G0 F2625 X68.725 Y81.453
G1 F900 X71.774 Y84.502 E15.9901
G0 F2625 X71.774 Y85.209
G1 F900 X68.725 Y82.16 E16.07459
G0 F2625 X68.725 Y82.867
G1 F900 X71.774 Y85.917 E16.15909
G0 F2625 X71.851 Y86.701
G1 F900 X68.725 Y83.574 E16.24573
G0 F2625 X68.725 Y84.281
G1 F900 X73.468 Y89.024 E16.37716
G0 F2625 X72.761 Y89.024
G1 F900 X68.21 Y84.473 E16.50327
G0 F2625 X67.503 Y84.473
G1 F900 X68.554 Y85.524 E16.53239
G0 F2625 X68.725 Y85.695
G1 F900 X72.054 Y89.024 E16.62464
G0 F2625 X71.347 Y89.024
G1 F900 X68.725 Y86.402 E16.6973
G0 F2625 X68.725 Y87.109
G1 F900 X70.639 Y89.024 E16.75035
G0 F2625 X69.932 Y89.024
G1 F900 X68.725 Y87.817 E16.7838
G0 F2625 X68.725 Y88.524
G1 F900 X69.225 Y89.024 E16.79765
G0 F2625 X68.528 Y85.722
G0 X67.846 Y85.524
G1 F900 X66.796 Y84.473 E16.82676
G0 F2625 X66.089 Y84.473
G1 F900 X67.139 Y85.524 E16.85587
G0 F2625 X66.432 Y85.524
G1 F900 X65.381 Y84.473 E16.885
G0 F2625 X64.674 Y84.473
G1 F900 X65.725 Y85.524 E16.91412
G0 F2625 X65.018 Y85.524
