;Generated by Cura LulzBot Edition GCodeWriter Version: 3.6.20
;FLAVOR:Marlin
;TIME:3056
;Filament used: 2.04313m
;Layer height: 0.4
;Generated with Cura_SteamEngine 3.6.20
M82 ;absolute extrusion mode
;This G-Code has been generated specifically for the LulzBot Mini 2 with SE 0.5mm Tool Head
M73 P0                  ; clear GLCD progress bar
M75 					; Start GLCD Print Timer
G26 					; clear potential 'probe fail' condition
M107 					; disable fans
M420 S0                 ; disable leveling matrix
G90 					; absolute positioning
M82 					; set extruder to absolute mode
G92 E0 					; set extruder position to 0
M140 S60.0 	; start bed heating up
G28 					; home all axes
G0 X0 Y187 Z156 F200 			; move away from endstops
M117 Mini 2 Wiping...			; progress indicator message on LCD
M109 R180 	; soften filament before retraction
G1 E-15 F75 				; retract filament
M109 R175 	; wait for extruder to reach wiping temp
G1 X45 Y176 F11520 			; move above wiper pad
G1 Z0 F1200 				; push nozzle into wiper
G1 X45 Y178 Z-.5 F4000		; wiping
G1 X55 Y176 Z-.5 F4000		; wiping
G1 X45 Y177 Z0 F4000		; wiping
G1 X55 Y176 F4000		; wiping
G1 X45 Y178 F4000		; wiping
G1 X55 Y176 F4000		; wiping
G1 X45 Y178 F4000		; wiping
G1 X55 Y176 F4000		; wiping
G1 X60 Y178 F4000		; wiping
G1 X80 Y176 F4000		; wiping
G1 X60 Y178 F4000		; wiping
G1 X80 Y176 F4000		; wiping
G1 X60 Y178 F4000		; wiping
G1 X90 Y176 F4000		; wiping
G1 X80 Y178 F4000		; wiping
G1 X100 Y176 F4000		; wiping
G1 X80 Y178 F4000		; wiping
G1 X100 Y176 F4000		; wiping
G1 X80 Y178 F4000		; wiping
G1 X100 Y176 F4000		; wiping
G1 X110 Y178 F4000		; wiping
G1 X100 Y176 F4000		; wiping
G1 X110 Y178 F4000		; wiping
G1 X100 Y176 F4000		; wiping
G1 X110 Y178 F4000		; wiping
G1 X115 Y176 Z-0.5 F1000	; wiping
G1 Z10					; raise extruder
G28 X0 Y0				; home X and Y
M109 R170	; wait for extruder to reach probe temp
M204 S300				; set probing acceleration
G29					; start auto-leveling sequence
G28 					; home all axes
G29					; start auto-leveling sequence
M420 S1                     ; enable leveling matrix
M425 Z			     		; use measured Z backlash for compensation
M425 Z F1
;M425 Z F0		     		; turn off measured Z backlash compensation. (if activated in the quality settings, this command will automatically be ignored)
M204 S2000				; restore standard acceleration
G1 X5 Y5 Z10 F5000			; move up off last probe point
G4 S1					; pause
M400					; wait for moves to finish
M117 Heating...				; progress indicator message on LCD
M109 R240	; wait for extruder to reach initial printing temp
M190 S60.0 ; wait for bed to reach printing temp
M400                                      ; wait for moves to finish
G1 X2 Y2 Z2 F5000
M400
G1 Z2 E0 F75				; prime tiny bit of filment into the nozzle
M400                                      ; wait for moves to finish
G92 E0
G1 E5 F80
M400                                      ; wait for moves to finish
G92 E0
M117 Mini 2 Printing...		; progress indicator message on LCD
M221 S115 T0
G92 E0
G1 F600 E-3
;LAYER_COUNT:26
;LAYER:0
M107
;MESH:
G0 F1800 X11.935 Y15.799 Z0.4
;TYPE:WALL-INNER
G1 F600 E0
G1 F1200 X12.633 Y15.441 E0.02828
G1 X13.383 Y15.263 E0.05607
G1 X14.165 Y15.27 E0.08427
G1 X14.919 Y15.461 E0.11231
G1 X15.605 Y15.826 E0.14033
G1 X16.187 Y16.346 E0.16847
G1 X16.625 Y16.983 E0.19634
G1 X16.903 Y17.719 E0.2247
G1 X16.994 Y18.484 E0.25248
G1 X16.903 Y19.253 E0.2804
G1 X16.636 Y19.97 E0.30798
G1 X16.208 Y20.604 E0.33556
G1 X15.637 Y21.126 E0.36345
G1 X14.5 Y21.751 E0.41023
G1 X14.5 Y87.502 E2.78079
G1 X14.698 Y92.673 E2.96736
G1 X15.293 Y97.829 E3.15448
G1 X16.281 Y102.925 E3.34163
G1 X17.656 Y107.929 E3.52873
G1 X19.411 Y112.814 E3.71588
G1 X21.535 Y117.55 E3.90301
G1 X24.014 Y122.11 E4.09014
G1 X26.834 Y126.466 E4.27723
G1 X29.981 Y130.593 E4.46434
G1 X33.434 Y134.467 E4.65144
G1 X37.174 Y138.067 E4.8386
G1 X41.178 Y141.369 E5.02572
G1 X45.423 Y144.355 E5.21284
G1 X49.884 Y147.008 E5.39996
G1 X54.535 Y149.31 E5.58706
G1 X59.349 Y151.25 E5.77419
G1 X64.297 Y152.815 E5.96129
G1 X69.351 Y153.999 E6.14844
G1 X74.48 Y154.791 E6.33555
G1 X79.654 Y155.188 E6.52264
G1 X84.845 Y155.188 E6.70979
G1 X90.02 Y154.791 E6.89692
G1 X95.149 Y153.999 E7.08403
G1 X100.203 Y152.815 E7.27118
G1 X105.151 Y151.25 E7.45828
G1 X109.964 Y149.31 E7.64537
G1 X114.616 Y147.008 E7.83251
G1 X119.077 Y144.355 E8.01963
G1 X123.322 Y141.369 E8.20675
G1 X127.326 Y138.067 E8.39387
G1 X131.066 Y134.467 E8.58103
G1 X134.519 Y130.593 E8.76813
G1 X137.665 Y126.466 E8.95522
G1 X140.486 Y122.11 E9.14233
G1 X142.965 Y117.55 E9.32946
G1 X145.088 Y112.814 E9.51658
G1 X146.843 Y107.929 E9.70372
G1 X148.218 Y102.925 E9.89082
G1 X149.207 Y97.829 E10.07798
G1 X149.801 Y92.673 E10.2651
G1 X150 Y87.502 E10.45167
G1 X150 Y18.237 E12.94892
G1 X151.5 Y18.237 E13.003
G1 X151.5 Y87.459 E15.4987
G1 X151.305 Y92.673 E15.68681
G1 X150.726 Y97.805 E15.87301
G1 X149.762 Y102.903 E16.06007
G1 X148.426 Y107.889 E16.24618
G1 X146.71 Y112.793 E16.4335
G1 X144.645 Y117.527 E16.6197
G1 X142.223 Y122.11 E16.80659
G1 X139.462 Y126.503 E16.99366
G1 X136.392 Y130.664 E17.18009
G1 X133.026 Y134.574 E17.3661
G1 X129.337 Y138.264 E17.55422
G1 X125.426 Y141.63 E17.74026
G1 X121.266 Y144.7 E17.92666
G1 X116.877 Y147.458 E18.11355
G1 X112.29 Y149.882 E18.3006
G1 X107.556 Y151.948 E18.48682
G1 X102.654 Y153.662 E18.67405
G1 X97.665 Y154.999 E18.86027
G1 X92.567 Y155.964 E19.04733
G1 X87.435 Y156.543 E19.23353
G1 X82.25 Y156.736 E19.4206
G1 X77.065 Y156.543 E19.60767
G1 X71.933 Y155.964 E19.79387
G1 X66.834 Y154.999 E19.98097
G1 X61.846 Y153.662 E20.16715
G1 X56.944 Y151.948 E20.35438
G1 X52.21 Y149.882 E20.5406
G1 X47.623 Y147.458 E20.72765
G1 X43.233 Y144.7 E20.91457
G1 X39.073 Y141.63 E21.10097
G1 X35.163 Y138.264 E21.28698
G1 X31.473 Y134.574 E21.47512
G1 X28.108 Y130.664 E21.66111
G1 X25.037 Y126.503 E21.84756
G1 X22.277 Y122.11 E22.03461
G1 X19.855 Y117.527 E22.2215
G1 X17.79 Y112.793 E22.40771
G1 X16.074 Y107.889 E22.59503
G1 X14.738 Y102.903 E22.78113
G1 X13.774 Y97.805 E22.96819
G1 X13.194 Y92.673 E23.15439
G1 X13 Y87.468 E23.34218
G1 X13 Y21.752 E25.71148
G1 X11.855 Y21.12 E25.75863
G1 X11.277 Y20.587 E25.78698
G1 X10.849 Y19.941 E25.81492
G1 X10.587 Y19.213 E25.84281
G1 X10.505 Y18.436 E25.87098
G1 X10.611 Y17.664 E25.89908
G1 X10.896 Y16.944 E25.92699
G1 X11.348 Y16.306 E25.95518
G1 X11.935 Y15.799 E25.98315
G0 F1800 X11.654 Y15.381
;TYPE:WALL-OUTER
G1 F1200 X12.457 Y14.97 E26.01567
G1 X13.329 Y14.763 E26.04798
G1 X14.231 Y14.77 E26.08051
G1 X15.098 Y14.99 E26.11275
G1 X15.894 Y15.414 E26.14527
G1 X16.565 Y16.013 E26.1777
G1 X17.072 Y16.752 E26.21001
G1 X17.391 Y17.596 E26.24254
G1 X17.498 Y18.487 E26.2749
G1 X17.393 Y19.37 E26.30696
G1 X17.085 Y20.199 E26.33884
G1 X16.589 Y20.933 E26.37078
G1 X15.929 Y21.536 E26.40301
G1 X15 Y22.047 E26.44124
G1 X15 Y87.492 E28.80076
G1 X15.197 Y92.635 E28.98632
G1 X15.788 Y97.753 E29.17207
G1 X16.768 Y102.811 E29.35782
G1 X18.133 Y107.778 E29.54354
G1 X19.875 Y112.627 E29.7293
G1 X21.983 Y117.328 E29.91505
G1 X24.444 Y121.854 E30.10079
G1 X27.243 Y126.178 E30.2865
G1 X30.367 Y130.275 E30.47225
G1 X33.795 Y134.12 E30.65797
G1 X37.507 Y137.693 E30.84373
G1 X41.481 Y140.971 E31.02946
G1 X45.695 Y143.935 E31.2152
G1 X50.123 Y146.568 E31.40094
G1 X54.74 Y148.853 E31.58667
G1 X59.518 Y150.779 E31.7724
G1 X64.43 Y152.333 E31.95815
G1 X69.446 Y153.508 E32.14389
G1 X74.537 Y154.294 E32.32961
G1 X79.673 Y154.688 E32.51533
G1 X84.826 Y154.688 E32.70111
G1 X89.963 Y154.294 E32.88686
G1 X95.054 Y153.508 E33.07259
G1 X100.07 Y152.333 E33.25833
G1 X104.982 Y150.779 E33.44407
G1 X109.759 Y148.853 E33.62977
G1 X114.377 Y146.568 E33.81554
G1 X118.805 Y143.935 E34.00127
G1 X123.019 Y140.971 E34.18702
G1 X126.993 Y137.693 E34.37275
G1 X130.705 Y134.12 E34.55851
G1 X134.133 Y130.275 E34.74423
G1 X137.256 Y126.178 E34.92996
G1 X140.056 Y121.854 E35.11568
G1 X142.517 Y117.328 E35.30143
G1 X144.624 Y112.627 E35.48716
G1 X146.366 Y107.778 E35.67292
G1 X147.731 Y102.811 E35.85864
G1 X148.712 Y97.753 E36.0444
G1 X149.302 Y92.635 E36.23014
G1 X149.5 Y87.492 E36.4157
G1 X149.5 Y17.737 E38.93062
G1 X152 Y17.737 E39.02075
G1 X152 Y87.478 E41.53516
G1 X151.804 Y92.708 E41.72386
G1 X151.222 Y97.874 E41.91129
G1 X150.249 Y103.017 E42.1
G1 X148.904 Y108.037 E42.28737
G1 X147.177 Y112.973 E42.47591
G1 X145.094 Y117.748 E42.66373
G1 X142.657 Y122.359 E42.85177
G1 X139.874 Y126.786 E43.04029
G1 X136.782 Y130.977 E43.22807
G1 X133.386 Y134.922 E43.41574
G1 X129.685 Y138.624 E43.60447
G1 X125.739 Y142.02 E43.79217
G1 X121.549 Y145.112 E43.97991
G1 X117.122 Y147.894 E44.16842
G1 X112.511 Y150.331 E44.35645
G1 X107.736 Y152.415 E44.54429
G1 X102.802 Y154.14 E44.73274
G1 X97.779 Y155.486 E44.92022
G1 X92.636 Y156.46 E45.10894
G1 X87.47 Y157.042 E45.29638
G1 X82.25 Y157.237 E45.48471
G1 X77.03 Y157.042 E45.67304
G1 X71.864 Y156.46 E45.86047
G1 X66.72 Y155.486 E46.04922
G1 X61.698 Y154.14 E46.23667
G1 X56.764 Y152.415 E46.42512
G1 X51.989 Y150.331 E46.61296
G1 X47.378 Y147.894 E46.80099
G1 X42.95 Y145.112 E46.98953
G1 X38.76 Y142.02 E47.17727
G1 X34.815 Y138.624 E47.36495
G1 X31.113 Y134.922 E47.5537
G1 X27.718 Y130.977 E47.74135
G1 X24.625 Y126.786 E47.92914
G1 X21.843 Y122.359 E48.11765
G1 X19.406 Y117.748 E48.30569
G1 X17.323 Y112.973 E48.49351
G1 X15.596 Y108.037 E48.68205
G1 X14.251 Y103.017 E48.86942
G1 X13.278 Y97.874 E49.05813
G1 X12.695 Y92.708 E49.24557
G1 X12.5 Y87.487 E49.43394
G1 X12.5 Y22.047 E51.79328
G1 X11.559 Y21.528 E51.83203
G1 X10.894 Y20.915 E51.86463
G1 X10.4 Y20.169 E51.89689
G1 X10.096 Y19.324 E51.92927
G1 X10.002 Y18.428 E51.96175
G1 X10.124 Y17.535 E51.99424
G1 X10.453 Y16.704 E52.02647
G1 X10.975 Y15.968 E52.059
G1 X11.654 Y15.381 E52.09136
G0 F1800 X11.876 Y15.268
G0 X12.148 Y15.802
G0 X14.492 Y29.497
G0 X14.461 Y87.502
G0 X14.659 Y92.676
G0 X15.254 Y97.835
G0 X16.243 Y102.934
G0 X17.618 Y107.941
G0 X19.374 Y112.828
G0 X21.5 Y117.567
G0 X23.98 Y122.13
G0 X26.802 Y126.489
G0 X29.352 Y129.833
G0 X32.285 Y133.402
;TYPE:SKIN
G1 F1200 X24.926 Y126.043 E52.46658
G1 X24.838 Y125.955
G0 F1800 X26.457 Y126.159
G1 F1200 X22.534 Y122.236 E52.6666
G1 X22.446 Y122.148
G0 F1800 X23.871 Y122.159
G1 F1200 X20.906 Y119.194 E52.81778
G1 X20.818 Y119.106
G0 F1800 X22.186 Y119.059
G1 F1200 X19.528 Y116.401 E52.9533
G1 X19.44 Y116.313
G0 F1800 X20.786 Y116.245
G1 F1200 X18.432 Y113.892 E53.0733
G1 X18.344 Y113.804
G0 F1800 X19.634 Y113.68
G1 F1200 X17.518 Y111.563 E53.18122
G1 X17.43 Y111.475
G0 F1800 X17.434 Y111.474
G0 X17.138 Y110.476
G1 F1200 X19.124 Y112.462 E53.28248
G1 X19.212 Y112.55
G0 F1800 X19.21 Y112.55
G0 X18.728 Y111.359
G1 F1200 X16.757 Y109.388 E53.38297
G1 X16.669 Y109.3
G0 F1800 X16.673 Y109.299
G0 X16.377 Y108.301
G1 F1200 X18.332 Y110.256 E53.48265
G1 X18.42 Y110.344
G0 F1800 X18.417 Y110.344
G0 X17.935 Y109.152
G1 F1200 X16.066 Y107.282 E53.57798
G1 X15.978 Y107.194
G0 F1800 X15.99 Y107.192
G0 X17.262 Y107.065
G1 F1200 X15.548 Y105.351 E53.66537
G1 X15.46 Y105.263
G0 F1800 X15.289 Y104.385
G1 F1200 X16.994 Y106.09 E53.7523
G1 X17.082 Y106.178
G0 F1800 X17.072 Y106.18
G0 X16.727 Y105.115
G1 F1200 X15.03 Y103.419 E53.8388
G0 F1800 X14.813 Y102.494
G1 F1200 X16.459 Y104.14 E53.92273
G1 X16.547 Y104.228
G0 F1800 X16.536 Y104.23
G0 X16.191 Y103.165
G1 F1200 X14.648 Y101.622 E54.0014
G0 F1800 X14.483 Y100.75
G1 F1200 X16.001 Y102.268 E54.0788
G0 F1800 X15.831 Y101.391
G1 F1200 X14.318 Y99.878 E54.15594
G0 F1800 X14.153 Y99.006
G1 F1200 X15.661 Y100.513 E54.23281
G0 F1800 X15.491 Y99.637
G1 F1200 X13.988 Y98.134 E54.30944
G0 F1800 X13.867 Y97.306
G1 F1200 X15.321 Y98.76 E54.38358
G0 F1800 X15.151 Y97.882
G1 F1200 X13.777 Y96.508 E54.45363
G0 F1800 X13.687 Y95.711
G1 F1200 X15.055 Y97.08 E54.52341
G0 F1800 X14.963 Y96.281
G1 F1200 X13.597 Y94.914 E54.59308
G0 F1800 X13.507 Y94.117
G1 F1200 X14.871 Y95.482 E54.66266
G0 F1800 X14.779 Y94.683
G1 F1200 X13.417 Y93.32 E54.73213
G0 F1800 X13.338 Y92.534
G1 F1200 X14.687 Y93.883 E54.80091
G0 F1800 X14.595 Y93.084
G1 F1200 X13.311 Y91.8 E54.86638
G0 F1800 X13.283 Y91.065
G1 F1200 X14.535 Y92.317 E54.93021
G0 F1800 X14.507 Y91.581
G1 F1200 X13.256 Y90.33 E54.994
G0 F1800 X13.229 Y89.596
G1 F1200 X14.478 Y90.846 E55.05771
G0 F1800 X14.45 Y90.11
G1 F1200 X13.201 Y88.862 E55.12136
G0 F1800 X13.174 Y88.127
G1 F1200 X14.422 Y89.375 E55.185
G0 F1800 X14.393 Y88.64
G1 F1200 X13.15 Y87.396 E55.2484
G0 F1800 X13.15 Y86.689
G1 F1200 X14.365 Y87.904 E55.31035
G0 F1800 X14.35 Y87.182
G1 F1200 X13.15 Y85.982 E55.37153
G0 F1800 X13.15 Y85.274
G1 F1200 X14.35 Y86.474 E55.43272
G0 F1800 X14.35 Y85.767
G1 F1200 X13.15 Y84.567 E55.4939
G0 F1800 X13.15 Y83.86
G1 F1200 X14.35 Y85.06 E55.55509
G0 F1800 X14.35 Y84.353
G1 F1200 X13.15 Y83.153 E55.61627
G0 F1800 X13.15 Y82.446
G1 F1200 X14.35 Y83.646 E55.67746
G0 F1800 X14.35 Y82.939
G1 F1200 X13.15 Y81.739 E55.73864
G0 F1800 X13.15 Y81.032
G1 F1200 X14.35 Y82.232 E55.79983
G0 F1800 X14.35 Y81.525
G1 F1200 X13.15 Y80.325 E55.86101
G0 F1800 X13.15 Y79.618
G1 F1200 X14.35 Y80.818 E55.9222
G0 F1800 X14.35 Y80.11
G1 F1200 X13.15 Y78.91 E55.98338
G0 F1800 X13.15 Y78.203
G1 F1200 X14.35 Y79.403 E56.04457
G0 F1800 X14.35 Y78.696
G1 F1200 X13.15 Y77.496 E56.10575
G0 F1800 X13.15 Y76.789
G1 F1200 X14.35 Y77.989 E56.16694
G0 F1800 X14.35 Y77.282
G1 F1200 X13.15 Y76.082 E56.22812
G0 F1800 X13.15 Y75.375
G1 F1200 X14.35 Y76.575 E56.28931
G0 F1800 X14.35 Y75.868
G1 F1200 X13.15 Y74.668 E56.35049
G0 F1800 X13.15 Y73.961
G1 F1200 X14.35 Y75.161 E56.41168
G0 F1800 X14.35 Y74.454
G1 F1200 X13.15 Y73.254 E56.47286
G0 F1800 X13.15 Y72.547
G1 F1200 X14.35 Y73.746 E56.53402
G0 F1800 X14.35 Y73.039
G1 F1200 X13.15 Y71.839 E56.59521
G0 F1800 X13.15 Y71.132
G1 F1200 X14.35 Y72.332 E56.65639
G0 F1800 X14.35 Y71.625
G1 F1200 X13.15 Y70.425 E56.71758
G0 F1800 X13.15 Y69.718
G1 F1200 X14.35 Y70.918 E56.77876
G0 F1800 X14.35 Y70.211
G1 F1200 X13.15 Y69.011 E56.83995
G0 F1800 X13.15 Y68.304
G1 F1200 X14.35 Y69.504 E56.90113
G0 F1800 X14.35 Y68.797
G1 F1200 X13.15 Y67.597 E56.96232
G0 F1800 X13.15 Y66.89
G1 F1200 X14.35 Y68.09 E57.0235
G0 F1800 X14.35 Y67.383
G1 F1200 X13.15 Y66.183 E57.08469
G0 F1800 X13.15 Y65.475
G1 F1200 X14.35 Y66.675 E57.14587
G0 F1800 X14.35 Y65.968
G1 F1200 X13.15 Y64.768 E57.20706
G0 F1800 X13.15 Y64.061
G1 F1200 X14.35 Y65.261 E57.26824
G0 F1800 X14.35 Y64.554
G1 F1200 X13.15 Y63.354 E57.32943
G0 F1800 X13.15 Y62.647
G1 F1200 X14.35 Y63.847 E57.39061
G0 F1800 X14.35 Y63.14
G1 F1200 X13.15 Y61.94 E57.4518
G0 F1800 X13.15 Y61.233
G1 F1200 X14.35 Y62.433 E57.51298
G0 F1800 X14.35 Y61.726
G1 F1200 X13.15 Y60.526 E57.57417
G0 F1800 X13.15 Y59.819
G1 F1200 X14.35 Y61.019 E57.63535
G0 F1800 X14.35 Y60.311
G1 F1200 X13.15 Y59.112 E57.69651
G0 F1800 X13.15 Y58.404
G1 F1200 X14.35 Y59.604 E57.7577
G0 F1800 X14.35 Y58.897
G1 F1200 X13.15 Y57.697 E57.81888
G0 F1800 X13.15 Y56.99
G1 F1200 X14.35 Y58.19 E57.88007
G0 F1800 X14.35 Y57.483
G1 F1200 X13.15 Y56.283 E57.94125
G0 F1800 X13.15 Y55.576
G1 F1200 X14.35 Y56.776 E58.00244
G0 F1800 X14.35 Y56.069
G1 F1200 X13.15 Y54.869 E58.06362
G0 F1800 X13.15 Y54.162
G1 F1200 X14.35 Y55.362 E58.12481
G0 F1800 X14.35 Y54.655
G1 F1200 X13.15 Y53.455 E58.18599
G0 F1800 X13.15 Y52.748
G1 F1200 X14.35 Y53.948 E58.24718
G0 F1800 X14.35 Y53.24
G1 F1200 X13.15 Y52.04 E58.30836
G0 F1800 X13.15 Y51.333
G1 F1200 X14.35 Y52.533 E58.36955
G0 F1800 X14.35 Y51.826
G1 F1200 X13.15 Y50.626 E58.43073
G0 F1800 X13.15 Y49.919
G1 F1200 X14.35 Y51.119 E58.49192
G0 F1800 X14.35 Y50.412
G1 F1200 X13.15 Y49.212 E58.5531
G0 F1800 X13.15 Y48.505
G1 F1200 X14.35 Y49.705 E58.61429
G0 F1800 X14.35 Y48.998
G1 F1200 X13.15 Y47.798 E58.67547
G0 F1800 X13.15 Y47.091
G1 F1200 X14.35 Y48.291 E58.73666
G0 F1800 X14.35 Y47.584
G1 F1200 X13.15 Y46.384 E58.79784
G0 F1800 X13.15 Y45.676
G1 F1200 X14.35 Y46.876 E58.85903
G0 F1800 X14.35 Y46.169
G1 F1200 X13.15 Y44.969 E58.92021
G0 F1800 X13.15 Y44.262
G1 F1200 X14.35 Y45.462 E58.98139
G0 F1800 X14.35 Y44.755
G1 F1200 X13.15 Y43.555 E59.04258
G0 F1800 X13.15 Y42.848
G1 F1200 X14.35 Y44.048 E59.10376
G0 F1800 X14.35 Y43.341
G1 F1200 X13.15 Y42.141 E59.16495
G0 F1800 X13.15 Y41.434
