;Generated by Cura LulzBot Edition GCodeWriter Version: 3.6.20
;FLAVOR:Marlin
;TIME:4798
;Filament used: 2.52489m
;Layer height: 0.25
;Generated with Cura_SteamEngine 3.6.20
M82 ;absolute extrusion mode
;This G-Code has been generated specifically for the LulzBot Mini 2 with SE 0.5mm Tool Head
M73 P0                  ; clear GLCD progress bar
M75 					; Start GLCD Print Timer
G26 					; clear potential 'probe fail' condition
M107 					; disable fans
M420 S0                 ; disable leveling matrix
G90 					; absolute positioning
M82 					; set extruder to absolute mode
G92 E0 					; set extruder position to 0
M140 S60.0 	; start bed heating up
G28 					; home all axes
G0 X0 Y187 Z156 F200 			; move away from endstops
M117 Mini 2 Wiping...			; progress indicator message on LCD
M109 R140 	; soften filament before retraction
G1 E-15 F75 				; retract filament
M109 R140 	; wait for extruder to reach wiping temp
G1 X45 Y176 F11520 			; move above wiper pad
G1 Z0 F1200 				; push nozzle into wiper
G1 X45 Y178 Z-.5 F4000		; wiping
G1 X55 Y176 Z-.5 F4000		; wiping
G1 X45 Y177 Z0 F4000		; wiping
G1 X55 Y176 F4000		; wiping
G1 X45 Y178 F4000		; wiping
G1 X55 Y176 F4000		; wiping
G1 X45 Y178 F4000		; wiping
G1 X55 Y176 F4000		; wiping
G1 X60 Y178 F4000		; wiping
G1 X80 Y176 F4000		; wiping
G1 X60 Y178 F4000		; wiping
G1 X80 Y176 F4000		; wiping
G1 X60 Y178 F4000		; wiping
G1 X90 Y176 F4000		; wiping
G1 X80 Y178 F4000		; wiping
G1 X100 Y176 F4000		; wiping
G1 X80 Y178 F4000		; wiping
G1 X100 Y176 F4000		; wiping
G1 X80 Y178 F4000		; wiping
G1 X100 Y176 F4000		; wiping
G1 X110 Y178 F4000		; wiping
G1 X100 Y176 F4000		; wiping
G1 X110 Y178 F4000		; wiping
G1 X100 Y176 F4000		; wiping
G1 X110 Y178 F4000		; wiping
G1 X115 Y176 Z-0.5 F1000	; wiping
G1 Z10					; raise extruder
G28 X0 Y0				; home X and Y
M109 R140	; wait for extruder to reach probe temp
M204 S300				; set probing acceleration
G29					; start auto-leveling sequence
G28 					; home all axes
G29					; start auto-leveling sequence
M420 S1                     ; enable leveling matrix
M425 Z			     		; use measured Z backlash for compensation
M425 Z F1
;M425 Z F0		     		; turn off measured Z backlash compensation. (if activated in the quality settings, this command will automatically be ignored)
M204 S2000				; restore standard acceleration
G1 X5 Y5 Z10 F5000			; move up off last probe point
G4 S1					; pause
M400					; wait for moves to finish
M117 Heating...				; progress indicator message on LCD
M109 R210	; wait for extruder to reach initial printing temp
M190 S60.0 ; wait for bed to reach printing temp
M400                                      ; wait for moves to finish
G1 X2 Y2 Z2 F5000
M400
G1 Z2 E0 F75				; prime tiny bit of filment into the nozzle
M400                                      ; wait for moves to finish
G92 E0
G1 E5 F80
M400                                      ; wait for moves to finish
G92 E0
M117 Mini 2 Printing...		; progress indicator message on LCD
M221 S100 T0
G92 E0
G1 F600 E-1.75
;LAYER_COUNT:38
;LAYER:0
M107
;MESH:
G0 F2625 X62.406 Y59.47 Z0.25
;TYPE:WALL-INNER
G1 F600 E0.00157
G1 F900 X62.925 Y58.951 E0.01595
G1 X63.536 Y58.567 E0.03009
G1 X64.224 Y58.326 E0.04437
G1 X64.984 Y58.24 E0.05936
G1 X97.016 Y58.24 E0.68701
G1 X97.776 Y58.326 E0.70199
G1 X98.464 Y58.567 E0.71628
G1 X99.075 Y58.951 E0.73042
G1 X99.594 Y59.47 E0.7448
G1 X99.978 Y60.081 E0.75894
G1 X100.219 Y60.769 E0.77322
G1 X100.305 Y61.529 E0.78821
G1 X100.305 Y100.471 E1.55125
G1 X100.219 Y101.231 E1.56624
G1 X99.978 Y101.919 E1.58052
G1 X99.594 Y102.53 E1.59466
G1 X99.075 Y103.049 E1.60904
G1 X98.464 Y103.433 E1.62319
G1 X97.776 Y103.674 E1.63747
G1 X97.016 Y103.76 E1.65246
G1 X64.984 Y103.76 E2.2801
G1 X64.224 Y103.674 E2.29509
G1 X63.536 Y103.433 E2.30937
G1 X62.925 Y103.049 E2.32351
G1 X62.406 Y102.53 E2.33789
G1 X62.022 Y101.919 E2.35203
G1 X61.781 Y101.231 E2.36632
G1 X61.695 Y100.471 E2.38131
G1 X61.695 Y61.529 E3.14435
G1 X61.781 Y60.769 E3.15933
G1 X62.022 Y60.081 E3.17362
G1 X62.406 Y59.47 E3.18776
G0 F2625 X62.015 Y59.153
;TYPE:WALL-OUTER
G1 F900 X62.608 Y58.56 E3.20419
G1 X63.319 Y58.113 E3.22065
G1 X64.113 Y57.835 E3.23713
G1 X64.955 Y57.74 E3.25373
G1 X97.045 Y57.74 E3.88252
G1 X97.887 Y57.835 E3.89912
G1 X98.681 Y58.113 E3.9156
G1 X99.392 Y58.56 E3.93206
G1 X99.985 Y59.153 E3.94849
G1 X100.432 Y59.864 E3.96495
G1 X100.71 Y60.658 E3.98143
G1 X100.805 Y61.5 E3.99803
G1 X100.805 Y100.5 E4.76221
G1 X100.71 Y101.342 E4.77882
G1 X100.432 Y102.136 E4.7953
G1 X99.985 Y102.847 E4.81176
G1 X99.392 Y103.44 E4.82819
G1 X98.681 Y103.887 E4.84465
G1 X97.887 Y104.165 E4.86113
G1 X97.045 Y104.26 E4.87773
G1 X64.955 Y104.26 E5.50651
G1 X64.113 Y104.165 E5.52312
G1 X63.319 Y103.887 E5.5396
G1 X62.608 Y103.44 E5.55606
G1 X62.015 Y102.847 E5.57249
G1 X61.568 Y102.136 E5.58895
G1 X61.29 Y101.342 E5.60543
G1 X61.195 Y100.5 E5.62203
G1 X61.195 Y61.5 E6.38621
G1 X61.29 Y60.658 E6.40281
G1 X61.568 Y59.864 E6.4193
G1 X62.015 Y59.153 E6.43575
G0 F2625 X62.191 Y58.977
G0 X62.58 Y59.366
G0 X62.614 Y59.402
G0 X99.766 Y60.168
;TYPE:SKIN
G1 F900 X98.376 Y58.778 E6.47427
G1 X98.288 Y58.69
G0 F2625 X97.4 Y58.509
G1 F900 X100.035 Y61.144 E6.54729
G0 F2625 X100.079 Y61.895
G1 F900 X96.648 Y58.465 E6.64235
G0 F2625 X95.941 Y58.465
G1 F900 X100.079 Y62.602 E6.757
G0 F2625 X100.079 Y63.31
G1 F900 X95.234 Y58.465 E6.89126
G0 F2625 X94.527 Y58.465
G1 F900 X100.079 Y64.017 E7.04511
G0 F2625 X100.079 Y64.724
G1 F900 X93.82 Y58.465 E7.21855
G0 F2625 X93.113 Y58.465
G1 F900 X100.079 Y65.431 E7.41158
G0 F2625 X100.079 Y66.138
G1 F900 X92.406 Y58.465 E7.62421
G0 F2625 X91.699 Y58.465
G1 F900 X100.079 Y66.845 E7.85642
G0 F2625 X100.079 Y67.552
G1 F900 X90.991 Y58.465 E8.10824
G0 F2625 X90.284 Y58.465
G1 F900 X100.079 Y68.259 E8.37965
G0 F2625 X100.079 Y68.966
G1 F900 X89.577 Y58.465 E8.67065
G0 F2625 X88.87 Y58.465
G1 F900 X100.079 Y69.674 E8.98126
G0 F2625 X100.079 Y70.381
G1 F900 X88.163 Y58.465 E9.31146
G0 F2625 X87.456 Y58.465
G1 F900 X100.079 Y71.088 E9.66125
G0 F2625 X100.079 Y71.795
G1 F900 X86.749 Y58.465 E10.03063
G0 F2625 X86.042 Y58.465
G1 F900 X100.079 Y72.502 E10.41961
G0 F2625 X100.079 Y73.209
G1 F900 X85.335 Y58.465 E10.82817
G0 F2625 X84.627 Y58.465
G1 F900 X100.079 Y73.916 E11.25634
G0 F2625 X100.079 Y74.623
G1 F900 X83.92 Y58.465 E11.7041
G0 F2625 X83.213 Y58.465
G1 F900 X100.079 Y75.33 E12.17145
G0 F2625 X100.079 Y76.038
G1 F900 X82.506 Y58.465 E12.65841
G0 F2625 X81.799 Y58.465
G1 F900 X100.079 Y76.745 E13.16496
G0 F2625 X100.079 Y77.452
G1 F900 X81.092 Y58.465 E13.6911
G0 F2625 X80.385 Y58.465
G1 F900 X100.079 Y78.159 E14.23683
G0 F2625 X100.079 Y78.866
G1 F900 X79.678 Y58.465 E14.80216
G0 F2625 X78.971 Y58.465
G1 F900 X100.079 Y79.573 E15.38707
G0 F2625 X100.079 Y80.28
G1 F900 X78.263 Y58.465 E15.99159
G0 F2625 X77.556 Y58.465
G1 F900 X100.079 Y80.987 E16.6157
G0 F2625 X100.079 Y81.694
G1 F900 X76.849 Y58.465 E17.25941
G0 F2625 X76.142 Y58.465
G1 F900 X100.079 Y82.401 E17.9227
G0 F2625 X100.079 Y83.109
G1 F900 X75.435 Y58.465 E18.6056
G0 F2625 X74.728 Y58.465
G1 F900 X100.079 Y83.816 E19.30809
G0 F2625 X100.079 Y84.523
G1 F900 X74.021 Y58.465 E20.03017
G0 F2625 X73.314 Y58.465
G1 F900 X100.079 Y85.23 E20.77184
G0 F2625 X100.079 Y85.937
G1 F900 X72.607 Y58.465 E21.53311
G0 F2625 X71.9 Y58.465
G1 F900 X100.079 Y86.644 E22.31397
G0 F2625 X100.079 Y87.351
G1 F900 X71.192 Y58.465 E23.11443
G0 F2625 X70.485 Y58.465
G1 F900 X100.079 Y88.058 E23.93448
G0 F2625 X100.079 Y88.765
G1 F900 X69.778 Y58.465 E24.77412
G0 F2625 X69.071 Y58.465
G1 F900 X100.079 Y89.473 E25.63337
G0 F2625 X100.079 Y90.18
G1 F900 X68.364 Y58.465 E26.51221
G0 F2625 X67.657 Y58.465
G1 F900 X100.079 Y90.887 E27.41065
G0 F2625 X100.079 Y91.594
G1 F900 X66.95 Y58.465 E28.32867
G0 F2625 X66.243 Y58.465
G1 F900 X100.079 Y92.301 E29.26628
G0 F2625 X100.079 Y93.008
G1 F900 X65.536 Y58.465 E30.22349
G0 F2625 X64.845 Y58.481
G1 F900 X100.079 Y93.715 E31.19984
G0 F2625 X100.079 Y94.422
G1 F900 X64.222 Y58.565 E32.19346
G0 F2625 X63.699 Y58.749
G1 F900 X100.079 Y95.129 E33.20157
G0 F2625 X100.079 Y95.837
G1 F900 X63.253 Y59.01 E34.22205
G0 F2625 X62.864 Y59.329
G1 F900 X100.079 Y96.544 E35.2533
G0 F2625 X100.079 Y97.251
G1 F900 X62.527 Y59.698 E36.2939
G0 F2625 X62.254 Y60.133
G1 F900 X100.079 Y97.958 E37.34206
G0 F2625 X100.079 Y98.665
G1 F900 X62.06 Y60.646 E38.39558
G0 F2625 X61.951 Y61.244
G1 F900 X100.079 Y99.372 E39.45213
G0 F2625 X100.079 Y100.079
G1 F900 X61.919 Y61.919 E40.50957
G0 F2625 X61.919 Y62.626
G1 F900 X100.047 Y100.754 E41.56612
G0 F2625 X99.938 Y101.352
G1 F900 X61.919 Y63.333 E42.61965
G0 F2625 X61.919 Y64.04
G1 F900 X99.745 Y101.866 E43.66782
G0 F2625 X99.472 Y102.3
G1 F900 X61.919 Y64.747 E44.70844
G0 F2625 X61.919 Y65.454
G1 F900 X99.134 Y102.67 E45.7397
G0 F2625 X98.746 Y102.988
G1 F900 X61.919 Y66.161 E46.7602
G0 F2625 X61.919 Y66.868
G1 F900 X98.3 Y103.25 E47.76835
G0 F2625 X97.777 Y103.434
G1 F900 X61.919 Y67.576 E48.762
G0 F2625 X61.919 Y68.283
G1 F900 X97.152 Y103.516 E49.73832
G0 F2625 X96.462 Y103.533
G1 F900 X61.919 Y68.99 E50.69553
G0 F2625 X61.919 Y69.697
G1 F900 X95.755 Y103.533 E51.63314
G0 F2625 X95.048 Y103.533
G1 F900 X61.919 Y70.404 E52.55117
G0 F2625 X61.919 Y71.111
G1 F900 X94.341 Y103.533 E53.4496
G0 F2625 X93.634 Y103.533
G1 F900 X61.919 Y71.818 E54.32844
G0 F2625 X61.919 Y72.525
G1 F900 X92.927 Y103.533 E55.18769
G0 F2625 X92.22 Y103.533
G1 F900 X61.919 Y73.232 E56.02735
G0 F2625 X61.919 Y73.94
G1 F900 X91.513 Y103.533 E56.8474
G0 F2625 X90.805 Y103.533
G1 F900 X61.919 Y74.647 E57.64785
G0 F2625 X61.919 Y75.354
G1 F900 X90.098 Y103.533 E58.4287
G0 F2625 X89.391 Y103.533
G1 F900 X61.919 Y76.061 E59.18997
G0 F2625 X61.919 Y76.768
G1 F900 X88.684 Y103.533 E59.93164
G0 F2625 X87.977 Y103.533
G1 F900 X61.919 Y77.475 E60.65372
G0 F2625 X61.919 Y78.182
G1 F900 X87.27 Y103.533 E61.35621
G0 F2625 X86.563 Y103.533
G1 F900 X61.919 Y78.889 E62.03911
G0 F2625 X61.919 Y79.596
G1 F900 X85.856 Y103.533 E62.70242
G0 F2625 X85.149 Y103.533
G1 F900 X61.919 Y80.303 E63.34614
G0 F2625 X61.919 Y81.011
G1 F900 X84.441 Y103.533 E63.97024
G0 F2625 X83.734 Y103.533
G1 F900 X61.919 Y81.718 E64.57474
G0 F2625 X61.919 Y82.425
G1 F900 X83.027 Y103.533 E65.15966
G0 F2625 X82.32 Y103.533
G1 F900 X61.919 Y83.132 E65.72498
G0 F2625 X61.919 Y83.839
G1 F900 X81.613 Y103.533 E66.27071
G0 F2625 X80.906 Y103.533
G1 F900 X61.919 Y84.546 E66.79685
G0 F2625 X61.919 Y85.253
G1 F900 X80.199 Y103.533 E67.3034
G0 F2625 X79.492 Y103.533
G1 F900 X61.919 Y85.96 E67.79036
G0 F2625 X61.919 Y86.667
G1 F900 X78.785 Y103.533 E68.25772
G0 F2625 X78.078 Y103.533
G1 F900 X61.919 Y87.375 E68.70549
G0 F2625 X61.919 Y88.082
G1 F900 X77.37 Y103.533 E69.13364
G0 F2625 X76.663 Y103.533
G1 F900 X61.919 Y88.789 E69.54221
G0 F2625 X61.919 Y89.496
G1 F900 X75.956 Y103.533 E69.93118
G0 F2625 X75.249 Y103.533
G1 F900 X61.919 Y90.203 E70.30056
G0 F2625 X61.919 Y90.91
G1 F900 X74.542 Y103.533 E70.65035
G0 F2625 X73.835 Y103.533
G1 F900 X61.919 Y91.617 E70.98055
G0 F2625 X61.919 Y92.324
G1 F900 X73.128 Y103.533 E71.29116
G0 F2625 X72.421 Y103.533
G1 F900 X61.919 Y93.031 E71.58218
G0 F2625 X61.919 Y93.739
G1 F900 X71.714 Y103.533 E71.85359
G0 F2625 X71.006 Y103.533
G1 F900 X61.919 Y94.446 E72.10539
G0 F2625 X61.919 Y95.153
G1 F900 X70.299 Y103.533 E72.33761
G0 F2625 X69.592 Y103.533
G1 F900 X61.919 Y95.86 E72.55023
G0 F2625 X61.919 Y96.567
G1 F900 X68.885 Y103.533 E72.74326
G0 F2625 X68.178 Y103.533
G1 F900 X61.919 Y97.274 E72.9167
G0 F2625 X61.919 Y97.981
G1 F900 X67.471 Y103.533 E73.07055
G0 F2625 X66.764 Y103.533
G1 F900 X61.919 Y98.688 E73.20481
G0 F2625 X61.919 Y99.395
M104 S205
G1 F900 X66.057 Y103.533 E73.31948
G0 F2625 X65.35 Y103.533
G1 F900 X61.919 Y100.102 E73.41455
G0 F2625 X61.963 Y100.854
G1 F900 X64.598 Y103.489 E73.48757
G1 X64.686 Y103.577
G0 F2625 X63.622 Y103.22
G1 F900 X62.233 Y101.831 E73.52606
G1 X62.145 Y101.743
G0 F2625 X62.453 Y101.636
;MESH:NONMESH
G0 X62.797 Y59.787
;TIME_ELAPSED:261.960894
;LAYER:1
M140 S60
M221 S100 T0
M106 S255
;MESH:
G0 F6562.5 X62.797 Y59.787 Z0.5
;TYPE:WALL-INNER
G1 F1350 X63.242 Y59.342 E73.53839
G1 X63.753 Y59.021 E73.55021
G1 X64.336 Y58.817 E73.56232
G1 X65.013 Y58.74 E73.57567
G1 X96.987 Y58.74 E74.20218
G1 X97.664 Y58.817 E74.21553
G1 X98.247 Y59.021 E74.22763
G1 X98.758 Y59.342 E74.23945
G1 X99.203 Y59.787 E74.25179
G1 X99.524 Y60.298 E74.26361
G1 X99.728 Y60.881 E74.27571
G1 X99.805 Y61.558 E74.28906
G1 X99.805 Y100.442 E75.05097
G1 X99.728 Y101.119 E75.06432
G1 X99.524 Y101.702 E75.07642
G1 X99.203 Y102.213 E75.08825
G1 X98.758 Y102.658 E75.10058
G1 X98.247 Y102.979 E75.1124
G1 X97.664 Y103.183 E75.1245
G1 X96.987 Y103.26 E75.13786
G1 X65.013 Y103.26 E75.76436
G1 X64.336 Y103.183 E75.77772
G1 X63.753 Y102.979 E75.78982
G1 X63.242 Y102.658 E75.80164
G1 X62.797 Y102.213 E75.81397
G1 X62.476 Y101.702 E75.8258
G1 X62.272 Y101.119 E75.8379
G1 X62.195 Y100.442 E75.85125
G1 X62.195 Y61.558 E76.61316
G1 X62.272 Y60.881 E76.62651
G1 X62.476 Y60.298 E76.63861
G1 X62.797 Y59.787 E76.65044
G0 F6562.5 X62.406 Y59.47
G1 F1350 X62.925 Y58.951 E76.66482
G1 X63.536 Y58.567 E76.67896
G1 X64.224 Y58.326 E76.69324
G1 X64.984 Y58.24 E76.70823
G1 X97.016 Y58.24 E77.33587
G1 X97.776 Y58.326 E77.35086
G1 X98.464 Y58.567 E77.36514
G1 X99.075 Y58.951 E77.37929
G1 X99.594 Y59.47 E77.39367
G1 X99.978 Y60.081 E77.40781
G1 X100.219 Y60.769 E77.42209
G1 X100.305 Y61.529 E77.43708
G1 X100.305 Y100.471 E78.20012
G1 X100.219 Y101.231 E78.21511
G1 X99.978 Y101.919 E78.22939
G1 X99.594 Y102.53 E78.24353
G1 X99.075 Y103.049 E78.25791
G1 X98.464 Y103.433 E78.27205
G1 X97.776 Y103.674 E78.28634
G1 X97.016 Y103.76 E78.30132
G1 X64.984 Y103.76 E78.92897
G1 X64.224 Y103.674 E78.94396
G1 X63.536 Y103.433 E78.95824
G1 X62.925 Y103.049 E78.97238
G1 X62.406 Y102.53 E78.98676
G1 X62.022 Y101.919 E79.0009
G1 X61.781 Y101.231 E79.01519
G1 X61.695 Y100.471 E79.03017
G1 X61.695 Y61.529 E79.79322
G1 X61.781 Y60.769 E79.8082
G1 X62.022 Y60.081 E79.82249
G1 X62.406 Y59.47 E79.83663
G0 F6562.5 X62.015 Y59.153
;TYPE:WALL-OUTER
G1 F1350 X62.608 Y58.56 E79.85306
G1 X63.319 Y58.113 E79.86952
G1 X64.113 Y57.835 E79.886
G1 X64.955 Y57.74 E79.9026
G1 X97.045 Y57.74 E80.53138
G1 X97.887 Y57.835 E80.54799
G1 X98.681 Y58.113 E80.56447
G1 X99.392 Y58.56 E80.58093
G1 X99.985 Y59.153 E80.59736
G1 X100.432 Y59.864 E80.61382
G1 X100.71 Y60.658 E80.6303
G1 X100.805 Y61.5 E80.6469
G1 X100.805 Y100.5 E81.41108
G1 X100.71 Y101.342 E81.42769
G1 X100.432 Y102.136 E81.44417
G1 X99.985 Y102.847 E81.46063
G1 X99.392 Y103.44 E81.47706
G1 X98.681 Y103.887 E81.49351
G1 X97.887 Y104.165 E81.51
G1 X97.045 Y104.26 E81.5266
G1 X64.955 Y104.26 E82.15538
G1 X64.113 Y104.165 E82.17199
G1 X63.319 Y103.887 E82.18847
G1 X62.608 Y103.44 E82.20493
G1 X62.015 Y102.847 E82.22136
G1 X61.568 Y102.136 E82.23781
G1 X61.29 Y101.342 E82.2543
G1 X61.195 Y100.5 E82.2709
G1 X61.195 Y61.5 E83.03508
G1 X61.29 Y60.658 E83.05168
G1 X61.568 Y59.864 E83.06817
G1 X62.015 Y59.153 E83.08462
G0 F6562.5 X62.191 Y58.977
G0 X62.58 Y59.366
G0 X62.745 Y60.29
;TYPE:SKIN
G1 F1350 X63.745 Y59.29 E83.11233
G1 X63.833 Y59.202
G0 F6562.5 X64.747 Y58.996
G1 F1350 X62.45 Y61.292 E83.17597
G0 F6562.5 X62.419 Y62.03
G1 F1350 X65.485 Y58.964 E83.26093
G0 F6562.5 X66.192 Y58.964
G1 F1350 X62.419 Y62.738 E83.3655
G0 F6562.5 X62.419 Y63.445
G1 F1350 X66.9 Y58.964 E83.48967
G0 F6562.5 X67.607 Y58.964
G1 F1350 X62.419 Y64.152 E83.63343
G0 F6562.5 X62.419 Y64.859
G1 F1350 X68.314 Y58.964 E83.79678
G0 F6562.5 X69.021 Y58.964
G1 F1350 X62.419 Y65.566 E83.97973
G0 F6562.5 X62.419 Y66.273
G1 F1350 X69.728 Y58.964 E84.18227
G0 F6562.5 X70.435 Y58.964
G1 F1350 X62.419 Y66.98 E84.40439
G0 F6562.5 X62.419 Y67.687
G1 F1350 X71.142 Y58.964 E84.64611
G0 F6562.5 X71.849 Y58.964
G1 F1350 X62.419 Y68.394 E84.90742
G0 F6562.5 X62.419 Y69.102
G1 F1350 X72.556 Y58.964 E85.18834
G0 F6562.5 X73.264 Y58.964
G1 F1350 X62.419 Y69.809 E85.48886
G0 F6562.5 X62.419 Y70.516
G1 F1350 X73.971 Y58.964 E85.80897
G0 F6562.5 X74.678 Y58.964
G1 F1350 X62.419 Y71.223 E86.14868
G0 F6562.5 X62.419 Y71.93
G1 F1350 X75.385 Y58.964 E86.50797
