;Generated by Cura LulzBot Edition GCodeWriter Version: 3.6.20
;FLAVOR:Marlin
;TIME:2808
;Filament used: 1.72919m
;Layer height: 0.38
;Generated with Cura_SteamEngine 3.6.20
M82 ;absolute extrusion mode
;This G-Code has been generated specifically for the LulzBot Mini 2 with SE 0.5mm Tool Head
M73 P0                  ; clear GLCD progress bar
M75 					; Start GLCD Print Timer
G26 					; clear potential 'probe fail' condition
M107 					; disable fans
M420 S0                 ; disable leveling matrix
G90 					; absolute positioning
M82 					; set extruder to absolute mode
G92 E0 					; set extruder position to 0
M140 S60.0 	; start bed heating up
G28 					; home all axes
G0 X0 Y187 Z156 F200 			; move away from endstops
M117 Mini 2 Wiping...			; progress indicator message on LCD
M109 R140 	; soften filament before retraction
G1 E-15 F75 				; retract filament
M109 R140 	; wait for extruder to reach wiping temp
G1 X45 Y176 F11520 			; move above wiper pad
G1 Z0 F1200 				; push nozzle into wiper
G1 X45 Y178 Z-.5 F4000		; wiping
G1 X55 Y176 Z-.5 F4000		; wiping
G1 X45 Y177 Z0 F4000		; wiping
G1 X55 Y176 F4000		; wiping
G1 X45 Y178 F4000		; wiping
G1 X55 Y176 F4000		; wiping
G1 X45 Y178 F4000		; wiping
G1 X55 Y176 F4000		; wiping
G1 X60 Y178 F4000		; wiping
G1 X80 Y176 F4000		; wiping
G1 X60 Y178 F4000		; wiping
G1 X80 Y176 F4000		; wiping
G1 X60 Y178 F4000		; wiping
G1 X90 Y176 F4000		; wiping
G1 X80 Y178 F4000		; wiping
G1 X100 Y176 F4000		; wiping
G1 X80 Y178 F4000		; wiping
G1 X100 Y176 F4000		; wiping
G1 X80 Y178 F4000		; wiping
G1 X100 Y176 F4000		; wiping
G1 X110 Y178 F4000		; wiping
G1 X100 Y176 F4000		; wiping
G1 X110 Y178 F4000		; wiping
G1 X100 Y176 F4000		; wiping
G1 X110 Y178 F4000		; wiping
G1 X115 Y176 Z-0.5 F1000	; wiping
G1 Z10					; raise extruder
G28 X0 Y0				; home X and Y
M109 R140	; wait for extruder to reach probe temp
M204 S300				; set probing acceleration
G29					; start auto-leveling sequence
G28 					; home all axes
G29					; start auto-leveling sequence
M420 S1                     ; enable leveling matrix
M425 Z			     		; use measured Z backlash for compensation
M425 Z F1
;M425 Z F0		     		; turn off measured Z backlash compensation. (if activated in the quality settings, this command will automatically be ignored)
M204 S2000				; restore standard acceleration
G1 X5 Y5 Z10 F5000			; move up off last probe point
G4 S1					; pause
M400					; wait for moves to finish
M117 Heating...				; progress indicator message on LCD
M109 R210	; wait for extruder to reach initial printing temp
M190 S60.0 ; wait for bed to reach printing temp
M400                                      ; wait for moves to finish
G1 X2 Y2 Z2 F5000
M400
G1 Z2 E0 F75				; prime tiny bit of filment into the nozzle
M400                                      ; wait for moves to finish
G92 E0
G1 E5 F80
M400                                      ; wait for moves to finish
G92 E0
M117 Mini 2 Printing...		; progress indicator message on LCD
M221 S100 T0
G92 E0
G1 F600 E-1.75
;LAYER_COUNT:18
;LAYER:0
M107
G0 F2625 X31.564 Y56.669 Z0.425
;TYPE:SUPPORT
G1 F600 E0
G1 F900 X32.881 Y55.982 E0.04424
G1 X34.294 Y55.65 E0.08747
G1 X67.706 Y55.651 E1.08259
G1 X69.125 Y55.987 E1.12602
G1 X70.441 Y56.675 E1.17025
G1 X71.513 Y57.628 E1.21297
G1 X72.332 Y58.824 E1.25614
G1 X72.847 Y60.204 E1.30001
G1 X72.85 Y101.907 E2.54207
G1 X72.423 Y103.148 E2.58116
G1 X71.724 Y104.266 E2.62043
G1 X70.817 Y105.192 E2.65903
G1 X69.718 Y105.902 E2.698
G1 X68.541 Y106.341 E2.73542
G1 X68.49 Y106.35 E2.73696
G1 X33.51 Y106.35 E3.77878
G1 X33.459 Y106.341 E3.78032
G1 X32.255 Y105.887 E3.81865
G1 X31.169 Y105.182 E3.85721
G1 X30.276 Y104.266 E3.89531
G1 X29.585 Y103.167 E3.93398
G1 X29.156 Y101.939 E3.97272
G1 X29.15 Y101.907 E3.97369
G1 X29.152 Y60.214 E5.21545
G1 X29.671 Y58.818 E5.2598
G1 X30.495 Y57.618 E5.30316
G1 X31.564 Y56.669 E5.34573
G1 F600 E3.59573
G0 F2625 X32.762 Y57.006
G1 F600 E5.34573
G1 F900 X31.798 Y57.608 E5.37958
G1 X30.999 Y58.406 E5.41322
G1 X30.391 Y59.367 E5.44708
G1 X30.017 Y60.432 E5.4807
G1 X29.896 Y61.493 E5.51251
G1 X29.895 Y100.64 E6.67844
G1 X30.014 Y101.694 E6.71003
G1 X30.388 Y102.771 E6.74398
G1 X30.987 Y103.727 E6.77758
G1 X31.785 Y104.529 E6.81128
G1 X32.748 Y105.138 E6.84522
G1 X33.813 Y105.511 E6.87882
G1 X34.874 Y105.633 E6.91063
G1 X67.111 Y105.634 E7.87076
G1 X68.165 Y105.515 E7.90235
G1 X69.243 Y105.141 E7.93633
G1 X70.2 Y104.542 E7.96996
G1 X71.001 Y103.742 E8.00368
G1 X71.609 Y102.78 E8.03757
G1 X71.983 Y101.716 E8.07116
G1 X72.104 Y100.655 E8.10297
G1 X72.105 Y61.508 E9.2689
G1 X71.986 Y60.454 E9.30049
G1 X71.612 Y59.376 E9.33447
G1 X71.015 Y58.423 E9.36797
G1 X70.21 Y57.612 E9.402
G1 X69.252 Y57.011 E9.43568
G1 X68.188 Y56.636 E9.46928
G1 X67.126 Y56.515 E9.50112
G1 X34.889 Y56.514 E10.46124
G1 X33.835 Y56.633 E10.49283
G1 X32.762 Y57.006 E10.52667
G0 F2625 X33 Y56.659
G1 F900 X33 Y56.21 E10.54004
G1 F600 E8.79004
G0 F2625 X32.298 Y57
G1 F600 E10.54004
G1 F900 X31.568 Y57 E10.56178
G0 F2625 X31.5 Y57.06
G1 F900 X31.5 Y57.552 E10.57643
G1 F600 E8.82643
G0 F2625 X30.643 Y58.5
G1 F600 E10.57643
G1 F900 X30.192 Y58.5 E10.58987
G0 F2625 X30 Y58.78
G1 F900 X30 Y59.727 E10.61807
G0 F2625 X29.903 Y60
G1 F900 X29.497 Y60 E10.63016
G1 F600 E8.88016
G0 F2625 X29.401 Y61.5
G1 F600 E10.63016
G1 F900 X29.644 Y61.5 E10.6374
G1 F600 E8.8874
G0 F2625 X29.644 Y63
G1 F600 E10.6374
G1 F900 X29.401 Y63 E10.64464
G1 F600 E8.89464
G0 F2625 X29.401 Y64.5
G1 F600 E10.64464
G1 F900 X29.644 Y64.5 E10.65188
G1 F600 E8.90188
G0 F2625 X29.644 Y66
G1 F600 E10.65188
G1 F900 X29.401 Y66 E10.65911
G1 F600 E8.90911
G0 F2625 X29.401 Y67.5
G1 F600 E10.65911
G1 F900 X29.644 Y67.5 E10.66635
G1 F600 E8.91635
G0 F2625 X29.644 Y69
G1 F600 E10.66635
G1 F900 X29.401 Y69 E10.67359
G1 F600 E8.92359
G0 F2625 X29.401 Y70.5
G1 F600 E10.67359
G1 F900 X29.644 Y70.5 E10.68083
G1 F600 E8.93083
G0 F2625 X29.644 Y72
G1 F600 E10.68083
G1 F900 X29.401 Y72 E10.68806
G1 F600 E8.93806
G0 F2625 X29.401 Y73.5
G1 F600 E10.68806
G1 F900 X29.644 Y73.5 E10.6953
G1 F600 E8.9453
G0 F2625 X29.644 Y75
G1 F600 E10.6953
G1 F900 X29.401 Y75 E10.70254
G1 F600 E8.95254
G0 F2625 X29.401 Y76.5
G1 F600 E10.70254
G1 F900 X29.644 Y76.5 E10.70978
G1 F600 E8.95978
G0 F2625 X29.644 Y78
G1 F600 E10.70978
G1 F900 X29.401 Y78 E10.71701
G1 F600 E8.96701
G0 F2625 X29.401 Y79.5
G1 F600 E10.71701
G1 F900 X29.644 Y79.5 E10.72425
G1 F600 E8.97425
G0 F2625 X29.644 Y81
G1 F600 E10.72425
G1 F900 X29.401 Y81 E10.73149
G1 F600 E8.98149
G0 F2625 X29.4 Y82.5
G1 F600 E10.73149
G1 F900 X29.644 Y82.5 E10.73875
G1 F600 E8.98875
G0 F2625 X29.644 Y84
G1 F600 E10.73875
G1 F900 X29.4 Y84 E10.74602
G1 F600 E8.99602
G0 F2625 X29.4 Y85.5
G1 F600 E10.74602
G1 F900 X29.644 Y85.5 E10.75329
G1 F600 E9.00329
G0 F2625 X29.644 Y87
G1 F600 E10.75329
G1 F900 X29.4 Y87 E10.76056
G1 F600 E9.01056
G0 F2625 X29.4 Y88.5
G1 F600 E10.76056
G1 F900 X29.644 Y88.5 E10.76782
G1 F600 E9.01782
G0 F2625 X29.644 Y90
G1 F600 E10.76782
G1 F900 X29.4 Y90 E10.77509
G1 F600 E9.02509
G0 F2625 X29.4 Y91.5
G1 F600 E10.77509
G1 F900 X29.644 Y91.5 E10.78236
G1 F600 E9.03236
G0 F2625 X29.644 Y93
G1 F600 E10.78236
G1 F900 X29.4 Y93 E10.78962
G1 F600 E9.03962
G0 F2625 X29.4 Y94.5
G1 F600 E10.78962
G1 F900 X29.644 Y94.5 E10.79689
G1 F600 E9.04689
G0 F2625 X29.644 Y96
G1 F600 E10.79689
G1 F900 X29.4 Y96 E10.80416
G1 F600 E9.05416
G0 F2625 X29.4 Y97.5
G1 F600 E10.80416
G1 F900 X29.644 Y97.5 E10.81143
G1 F600 E9.06143
G0 F2625 X29.644 Y99
G1 F600 E10.81143
G1 F900 X29.4 Y99 E10.81869
G1 F600 E9.06869
G0 F2625 X29.4 Y100.5
G1 F600 E10.81869
G1 F900 X29.644 Y100.5 E10.82596
G1 F600 E9.07596
G0 F2625 X29.44 Y102
G1 F600 E10.82596
G1 F900 X29.855 Y102 E10.83832
G0 F2625 X30 Y102.416
G1 F900 X30 Y103.356 E10.86632
G0 F2625 X30.089 Y103.5
G1 F900 X30.549 Y103.5 E10.88002
G1 F600 E9.13002
G0 F2625 X31.5 Y104.597
G1 F600 E10.88002
G1 F900 X31.5 Y105.098 E10.89494
G0 F2625 X31.346 Y105
G1 F900 X32.061 Y105 E10.91623
G1 F600 E9.16623
G0 F2625 X33 Y105.492
G1 F600 E10.91623
G1 F900 X33 Y105.9 E10.92839
G1 F600 E9.17839
G0 F2625 X34.5 Y105.842
G1 F600 E10.92839
G1 F900 X34.5 Y106.099 E10.93604
G1 F600 E9.18604
G0 F2625 X36 Y106.099
G1 F600 E10.93604
G1 F900 X36 Y105.884 E10.94244
G1 F600 E9.19244
G0 F2625 X37.5 Y105.884
G1 F600 E10.94244
G1 F900 X37.5 Y106.099 E10.94885
G1 F600 E9.19885
G0 F2625 X39 Y106.099
G1 F600 E10.94885
G1 F900 X39 Y105.884 E10.95525
G1 F600 E9.20525
G0 F2625 X40.5 Y105.884
G1 F600 E10.95525
G1 F900 X40.5 Y106.099 E10.96165
G1 F600 E9.21165
G0 F2625 X42 Y106.099
G1 F600 E10.96165
G1 F900 X42 Y105.884 E10.96806
G1 F600 E9.21806
G0 F2625 X43.5 Y105.884
G1 F600 E10.96806
G1 F900 X43.5 Y106.099 E10.97446
G1 F600 E9.22446
G0 F2625 X45 Y106.099
G1 F600 E10.97446
G1 F900 X45 Y105.884 E10.98086
G1 F600 E9.23086
G0 F2625 X46.5 Y105.884
G1 F600 E10.98086
G1 F900 X46.5 Y106.099 E10.98727
G1 F600 E9.23727
G0 F2625 X48 Y106.099
G1 F600 E10.98727
G1 F900 X48 Y105.884 E10.99367
G1 F600 E9.24367
G0 F2625 X49.5 Y105.884
G1 F600 E10.99367
G1 F900 X49.5 Y106.099 E11.00007
G1 F600 E9.25007
G0 F2625 X51 Y106.099
G1 F600 E11.00007
G1 F900 X51 Y105.884 E11.00648
G1 F600 E9.25648
G0 F2625 X52.5 Y105.884
G1 F600 E11.00648
G1 F900 X52.5 Y106.099 E11.01288
G1 F600 E9.26288
G0 F2625 X54 Y106.099
G1 F600 E11.01288
G1 F900 X54 Y105.884 E11.01928
G1 F600 E9.26928
G0 F2625 X55.5 Y105.884
G1 F600 E11.01928
G1 F900 X55.5 Y106.099 E11.02569
G1 F600 E9.27569
G0 F2625 X57 Y106.099
G1 F600 E11.02569
G1 F900 X57 Y105.884 E11.03209
G1 F600 E9.28209
G0 F2625 X58.5 Y105.884
G1 F600 E11.03209
G1 F900 X58.5 Y106.099 E11.03849
G1 F600 E9.28849
G0 F2625 X60 Y106.099
G1 F600 E11.03849
G1 F900 X60 Y105.884 E11.0449
G1 F600 E9.2949
G0 F2625 X61.5 Y105.884
G1 F600 E11.0449
G1 F900 X61.5 Y106.099 E11.0513
G1 F600 E9.3013
G0 F2625 X63 Y106.099
G1 F600 E11.0513
G1 F900 X63 Y105.884 E11.0577
G1 F600 E9.3077
G0 F2625 X64.5 Y105.884
G1 F600 E11.0577
G1 F900 X64.5 Y106.099 E11.06411
G1 F600 E9.31411
G0 F2625 X66 Y106.099
G1 F600 E11.06411
G1 F900 X66 Y105.884 E11.07051
G1 F600 E9.32051
G0 F2625 X67.5 Y105.841
G1 F600 E11.07051
G1 F900 X67.5 Y106.099 E11.0782
G1 F600 E9.3282
G0 F2625 X69 Y105.903
G1 F600 E11.0782
G1 F900 X69 Y105.49 E11.0905
G1 F600 E9.3405
G0 F2625 X69.94 Y105
G1 F600 E11.0905
G1 F900 X70.652 Y105 E11.1117
G0 F2625 X70.5 Y105.099
G1 F900 X70.5 Y104.596 E11.12668
G1 F600 E9.37668
G0 F2625 X71.45 Y103.5
G1 F600 E11.12668
G1 F900 X71.907 Y103.5 E11.14029
G0 F2625 X72 Y103.353
G1 F900 X72 Y102.42 E11.16808
G0 F2625 X72.148 Y102
G1 F900 X72.554 Y102 E11.18017
G1 F600 E9.43017
G0 F2625 X72.6 Y100.5
G1 F600 E11.18017
G1 F900 X72.355 Y100.5 E11.18747
G1 F600 E9.43747
G0 F2625 X72.355 Y99
G1 F600 E11.18747
G1 F900 X72.6 Y99 E11.19477
G1 F600 E9.44477
G0 F2625 X72.6 Y97.5
G1 F600 E11.19477
G1 F900 X72.355 Y97.5 E11.20206
G1 F600 E9.45206
G0 F2625 X72.355 Y96
G1 F600 E11.20206
G1 F900 X72.6 Y96 E11.20936
G1 F600 E9.45936
G0 F2625 X72.6 Y94.5
G1 F600 E11.20936
G1 F900 X72.355 Y94.5 E11.21666
G1 F600 E9.46666
G0 F2625 X72.355 Y93
G1 F600 E11.21666
G1 F900 X72.6 Y93 E11.22396
G1 F600 E9.47396
G0 F2625 X72.6 Y91.5
G1 F600 E11.22396
G1 F900 X72.355 Y91.5 E11.23125
G1 F600 E9.48125
G0 F2625 X72.355 Y90
G1 F600 E11.23125
G1 F900 X72.6 Y90 E11.23855
G1 F600 E9.48855
G0 F2625 X72.6 Y88.5
G1 F600 E11.23855
G1 F900 X72.355 Y88.5 E11.24585
G1 F600 E9.49585
G0 F2625 X72.355 Y87
G1 F600 E11.24585
G1 F900 X72.599 Y87 E11.25311
G1 F600 E9.50311
G0 F2625 X72.599 Y85.5
G1 F600 E11.25311
G1 F900 X72.355 Y85.5 E11.26038
G1 F600 E9.51038
G0 F2625 X72.355 Y84
G1 F600 E11.26038
G1 F900 X72.599 Y84 E11.26765
G1 F600 E9.51765
G0 F2625 X72.599 Y82.5
G1 F600 E11.26765
G1 F900 X72.355 Y82.5 E11.27491
G1 F600 E9.52491
G0 F2625 X72.355 Y81
G1 F600 E11.27491
G1 F900 X72.599 Y81 E11.28218
G1 F600 E9.53218
G0 F2625 X72.599 Y79.5
G1 F600 E11.28218
G1 F900 X72.355 Y79.5 E11.28945
G1 F600 E9.53945
G0 F2625 X72.355 Y78
G1 F600 E11.28945
G1 F900 X72.599 Y78 E11.29672
G1 F600 E9.54672
G0 F2625 X72.599 Y76.5
G1 F600 E11.29672
G1 F900 X72.355 Y76.5 E11.30398
G1 F600 E9.55398
G0 F2625 X72.355 Y75
G1 F600 E11.30398
G1 F900 X72.599 Y75 E11.31125
G1 F600 E9.56125
G0 F2625 X72.598 Y73.5
G1 F600 E11.31125
G1 F900 X72.355 Y73.5 E11.31849
G1 F600 E9.56849
G0 F2625 X72.355 Y72
G1 F600 E11.31849
G1 F900 X72.598 Y72 E11.32573
G1 F600 E9.57573
G0 F2625 X72.598 Y70.5
G1 F600 E11.32573
G1 F900 X72.355 Y70.5 E11.33296
G1 F600 E9.58296
G0 F2625 X72.355 Y69
G1 F600 E11.33296
G1 F900 X72.598 Y69 E11.3402
G1 F600 E9.5902
G0 F2625 X72.598 Y67.5
G1 F600 E11.3402
G1 F900 X72.355 Y67.5 E11.34744
G1 F600 E9.59744
G0 F2625 X72.355 Y66
G1 F600 E11.34744
G1 F900 X72.598 Y66 E11.35467
G1 F600 E9.60467
G0 F2625 X72.598 Y64.5
G1 F600 E11.35467
G1 F900 X72.355 Y64.5 E11.36191
G1 F600 E9.61191
G0 F2625 X72.355 Y63
G1 F600 E11.36191
G1 F900 X72.598 Y63 E11.36915
G1 F600 E9.61915
G0 F2625 X72.598 Y61.5
G1 F600 E11.36915
G1 F900 X72.355 Y61.5 E11.37639
G1 F600 E9.62639
G0 F2625 X72.505 Y60
G1 F600 E11.37639
G1 F900 X72.093 Y60 E11.38866
G0 F2625 X72 Y59.731
G1 F900 X72 Y58.781 E11.41695
G0 F2625 X71.809 Y58.5
G1 F900 X71.358 Y58.5 E11.43038
G1 F600 E9.68038
G0 F2625 X70.5 Y57.549
G1 F600 E11.43038
G1 F900 X70.5 Y57.063 E11.44486
G0 F2625 X70.431 Y57
G1 F900 X69.706 Y57 E11.46645
G0 F2625 X69 Y56.656
G1 F900 X69 Y56.214 E11.47962
G1 F600 E9.72962
G0 F2625 X67.5 Y56.306
G1 F600 E11.47962
G1 F900 X67.5 Y55.901 E11.49168
G1 F600 E9.74168
G0 F2625 X66 Y55.901
G1 F600 E11.49168
G1 F900 X66 Y56.264 E11.50249
G1 F600 E9.75249
G0 F2625 X64.5 Y56.264
G1 F600 E11.50249
G1 F900 X64.5 Y55.901 E11.5133
G0 F2625 X63 Y55.901
G1 F900 X63 Y56.264 E11.52411
G0 F2625 X61.5 Y56.264
G1 F900 X61.5 Y55.901 E11.53492
G0 F2625 X60 Y55.901
G1 F900 X60 Y56.264 E11.54574
G0 F2625 X58.5 Y56.264
G1 F900 X58.5 Y55.901 E11.55655
G0 F2625 X57 Y55.901
G1 F900 X57 Y56.264 E11.56736
G0 F2625 X55.5 Y56.264
G1 F900 X55.5 Y55.901 E11.57817
G0 F2625 X54 Y55.901
G1 F900 X54 Y56.264 E11.58898
G0 F2625 X52.5 Y56.264
G1 F900 X52.5 Y55.901 E11.59979
G0 F2625 X51 Y55.901
G1 F900 X51 Y56.264 E11.6106
G0 F2625 X49.5 Y56.264
G1 F900 X49.5 Y55.901 E11.62141
G0 F2625 X48 Y55.901
G1 F900 X48 Y56.264 E11.63223
G0 F2625 X46.5 Y56.264
G1 F900 X46.5 Y55.901 E11.64304
G0 F2625 X45 Y55.901
G1 F900 X45 Y56.264 E11.65385
G0 F2625 X43.5 Y56.264
G1 F900 X43.5 Y55.901 E11.66466
G0 F2625 X42 Y55.901
G1 F900 X42 Y56.264 E11.67547
G0 F2625 X40.5 Y56.264
G1 F900 X40.5 Y55.901 E11.68628
G0 F2625 X39 Y55.901
G1 F900 X39 Y56.264 E11.69709
G0 F2625 X37.5 Y56.264
G1 F900 X37.5 Y55.901 E11.70791
G0 F2625 X36 Y55.901
G1 F900 X36 Y56.264 E11.71872
G0 F2625 X34.5 Y56.307
G1 F900 X34.5 Y55.901 E11.73081
G0 F2625 X67.104 Y56.901
G0 X68.1 Y57.015
G0 X68.895 Y57.294
G0 X89.15 Y66.907
G1 F900 X89.152 Y25.214 E12.97257
G1 X89.671 Y23.818 E13.01693
G1 X90.495 Y22.618 E13.06028
G1 X91.564 Y21.669 E13.10285
G1 X92.881 Y20.982 E13.1471
G1 X94.294 Y20.65 E13.19033
G1 X127.706 Y20.651 E14.18545
G1 X129.125 Y20.987 E14.22888
G1 X130.441 Y21.675 E14.27311
G1 X131.513 Y22.628 E14.31583
G1 X132.332 Y23.824 E14.359
G1 X132.847 Y25.204 E14.40287
G1 X132.85 Y66.907 E15.64493
G1 X132.423 Y68.148 E15.68401
G1 X131.724 Y69.266 E15.72328
G1 X130.817 Y70.192 E15.76189
G1 X129.718 Y70.902 E15.80086
G1 X128.541 Y71.341 E15.83827
G1 X128.49 Y71.35 E15.83981
G1 X93.51 Y71.35 E16.88164
G1 X93.459 Y71.341 E16.88318
G1 X92.255 Y70.887 E16.9215
G1 X91.169 Y70.182 E16.96007
G1 X90.276 Y69.266 E16.99817
G1 X89.585 Y68.167 E17.03683
G1 X89.156 Y66.939 E17.07557
G1 X89.15 Y66.907 E17.07654
G1 F600 E15.32654
G0 F2625 X89.895 Y65.64
G1 F600 E17.07654
G1 F900 X90.014 Y66.694 E17.10813
G1 X90.388 Y67.771 E17.14209
G1 X90.987 Y68.727 E17.17569
G1 X91.785 Y69.529 E17.20938
G1 X92.748 Y70.138 E17.24332
G1 X93.813 Y70.511 E17.27693
G1 X94.874 Y70.633 E17.30874
G1 X127.111 Y70.634 E18.26886
G1 X128.165 Y70.515 E18.30046
G1 X129.243 Y70.141 E18.33444
G1 X130.2 Y69.542 E18.36806
G1 X131.001 Y68.742 E18.40178
G1 X131.609 Y67.78 E18.43568
G1 X131.983 Y66.716 E18.46927
G1 X132.104 Y65.655 E18.50107
G1 X132.105 Y26.508 E19.667
G1 X131.986 Y25.454 E19.69859
G1 X131.612 Y24.376 E19.73258
