;Generated by Cura LulzBot Edition GCodeWriter Version: 3.6.20
;FLAVOR:Marlin
;TIME:965
;Filament used: 0.412748m
;Layer height: 0.25
;Generated with Cura_SteamEngine 3.6.20
M82 ;absolute extrusion mode
;This G-Code has been generated specifically for the LulzBot Mini 2 with SE 0.5mm Tool Head
M73 P0                  ; clear GLCD progress bar
M75 					; Start GLCD Print Timer
G26 					; clear potential 'probe fail' condition
M107 					; disable fans
M420 S0                 ; disable leveling matrix
G90 					; absolute positioning
M82 					; set extruder to absolute mode
G92 E0 					; set extruder position to 0
M140 S60.0 	; start bed heating up
G28 					; home all axes
G0 X0 Y187 Z156 F200 			; move away from endstops
M117 Mini 2 Wiping...			; progress indicator message on LCD
M109 R140 	; soften filament before retraction
G1 E-15 F75 				; retract filament
M109 R140 	; wait for extruder to reach wiping temp
G1 X45 Y176 F11520 			; move above wiper pad
G1 Z0 F1200 				; push nozzle into wiper
G1 X45 Y178 Z-.5 F4000		; wiping
G1 X55 Y176 Z-.5 F4000		; wiping
G1 X45 Y177 Z0 F4000		; wiping
G1 X55 Y176 F4000		; wiping
G1 X45 Y178 F4000		; wiping
G1 X55 Y176 F4000		; wiping
G1 X45 Y178 F4000		; wiping
G1 X55 Y176 F4000		; wiping
G1 X60 Y178 F4000		; wiping
G1 X80 Y176 F4000		; wiping
G1 X60 Y178 F4000		; wiping
G1 X80 Y176 F4000		; wiping
G1 X60 Y178 F4000		; wiping
G1 X90 Y176 F4000		; wiping
G1 X80 Y178 F4000		; wiping
G1 X100 Y176 F4000		; wiping
G1 X80 Y178 F4000		; wiping
G1 X100 Y176 F4000		; wiping
G1 X80 Y178 F4000		; wiping
G1 X100 Y176 F4000		; wiping
G1 X110 Y178 F4000		; wiping
G1 X100 Y176 F4000		; wiping
G1 X110 Y178 F4000		; wiping
G1 X100 Y176 F4000		; wiping
G1 X110 Y178 F4000		; wiping
G1 X115 Y176 Z-0.5 F1000	; wiping
G1 Z10					; raise extruder
G28 X0 Y0				; home X and Y
M109 R140	; wait for extruder to reach probe temp
M204 S300				; set probing acceleration
G29					; start auto-leveling sequence
G28 					; home all axes
G29					; start auto-leveling sequence
M420 S1                     ; enable leveling matrix
M425 Z			     		; use measured Z backlash for compensation
M425 Z F1
;M425 Z F0		     		; turn off measured Z backlash compensation. (if activated in the quality settings, this command will automatically be ignored)
M204 S2000				; restore standard acceleration
G1 X5 Y5 Z10 F5000			; move up off last probe point
G4 S1					; pause
M400					; wait for moves to finish
M117 Heating...				; progress indicator message on LCD
M109 R210	; wait for extruder to reach initial printing temp
M190 S60.0 ; wait for bed to reach printing temp
M400                                      ; wait for moves to finish
G1 X2 Y2 Z2 F5000
M400
G1 Z2 E0 F75				; prime tiny bit of filment into the nozzle
M400                                      ; wait for moves to finish
G92 E0
G1 E5 F80
M400                                      ; wait for moves to finish
G92 E0
M117 Mini 2 Printing...		; progress indicator message on LCD
M221 S100 T0
G92 E0
G1 F600 E-1.75
;LAYER_COUNT:21
;LAYER:0
M107
;MESH:
G0 F2625 X65.435 Y73.733 Z0.25
;TYPE:WALL-INNER
G1 F600 E0.00157
G1 F900 X64.937 Y74.173 E0.01459
G1 X64.56 Y74.72 E0.02761
G1 X64.324 Y75.34 E0.0406
G1 X64.25 Y75.955 E0.05274
G1 X64.25 Y86.045 E0.25045
G1 X64.324 Y86.66 E0.26259
G1 X64.56 Y87.28 E0.27559
G1 X64.937 Y87.827 E0.2886
G1 X65.435 Y88.267 E0.30162
G1 X66.024 Y88.577 E0.31467
G1 X66.669 Y88.735 E0.32768
G1 X67.331 Y88.735 E0.34065
G1 X67.976 Y88.577 E0.35366
G1 X68.565 Y88.267 E0.3667
G1 X69.063 Y87.827 E0.37972
G1 X69.44 Y87.28 E0.39274
G1 X69.676 Y86.66 E0.40574
G1 X69.75 Y86.045 E0.41788
G1 X69.75 Y75.955 E0.61558
G1 X69.676 Y75.34 E0.62772
G1 X69.44 Y74.72 E0.64072
G1 X69.063 Y74.173 E0.65374
G1 X68.565 Y73.733 E0.66676
G1 X67.976 Y73.423 E0.6798
G1 X67.331 Y73.265 E0.69281
G1 X66.669 Y73.265 E0.70578
G1 X66.024 Y73.423 E0.7188
G1 X65.435 Y73.733 E0.73184
G0 F2625 X65.721 Y74.147
;TYPE:WALL-OUTER
G1 F900 X65.314 Y74.507 E0.74248
G1 X65.006 Y74.954 E0.75312
G1 X64.813 Y75.461 E0.76375
G1 X64.75 Y75.985 E0.77409
G1 X64.75 Y86.015 E0.97062
G1 X64.813 Y86.539 E0.98096
G1 X65.006 Y87.046 E0.99159
G1 X65.314 Y87.493 E1.00223
G1 X65.721 Y87.853 E1.01288
G1 X66.202 Y88.106 E1.02353
G1 X66.729 Y88.235 E1.03416
G1 X67.271 Y88.235 E1.04478
G1 X67.798 Y88.106 E1.05541
G1 X68.279 Y87.853 E1.06606
G1 X68.686 Y87.493 E1.07671
G1 X68.994 Y87.046 E1.08734
G1 X69.187 Y86.539 E1.09797
G1 X69.25 Y86.015 E1.10831
G1 X69.25 Y75.985 E1.30484
G1 X69.187 Y75.461 E1.31519
G1 X68.994 Y74.954 E1.32582
G1 X68.686 Y74.507 E1.33645
G1 X68.279 Y74.147 E1.3471
G1 X67.798 Y73.894 E1.35775
G1 X67.271 Y73.765 E1.36838
G1 X66.729 Y73.765 E1.379
G1 X66.202 Y73.894 E1.38963
G1 X65.721 Y74.147 E1.40028
G0 F2625 X65.534 Y74.312
G0 X65.171 Y73.9
G0 X65.138 Y73.862
G0 X66.01 Y73.386
G0 X66.665 Y73.226
G0 X67.044 Y73.226
G0 X74.863 Y74.107
G0 X74.937 Y74.173
;TYPE:WALL-INNER
G1 F900 X74.56 Y74.72 E1.4133
G1 X74.324 Y75.34 E1.4263
G1 X74.25 Y75.955 E1.43843
G1 X74.25 Y86.045 E1.63614
G1 X74.324 Y86.66 E1.64828
G1 X74.56 Y87.28 E1.66128
G1 X74.937 Y87.827 E1.67429
G1 X75.435 Y88.267 E1.68731
G1 X76.024 Y88.577 E1.70036
G1 X76.669 Y88.735 E1.71337
G1 X77.331 Y88.735 E1.72634
G1 X77.976 Y88.577 E1.73935
G1 X78.565 Y88.267 E1.75239
G1 X79.063 Y87.827 E1.76541
G1 X79.44 Y87.28 E1.77843
G1 X79.676 Y86.66 E1.79143
G1 X79.75 Y86.045 E1.80357
G1 X79.75 Y75.955 E2.00127
G1 X79.676 Y75.34 E2.01341
G1 X79.44 Y74.72 E2.02641
G1 X79.063 Y74.173 E2.03943
G1 X78.565 Y73.733 E2.05245
G1 X77.976 Y73.423 E2.06549
G1 X77.331 Y73.265 E2.0785
G1 X76.669 Y73.265 E2.09147
G1 X76.024 Y73.423 E2.10449
G1 X75.435 Y73.733 E2.11753
G1 X74.937 Y74.173 E2.13055
G0 F2625 X75.314 Y74.507
;TYPE:WALL-OUTER
G1 F900 X75.006 Y74.954 E2.14119
G1 X74.813 Y75.461 E2.15182
G1 X74.75 Y75.985 E2.16216
G1 X74.75 Y86.015 E2.35869
G1 X74.813 Y86.539 E2.36903
G1 X75.006 Y87.046 E2.37966
G1 X75.314 Y87.493 E2.3903
G1 X75.721 Y87.853 E2.40094
G1 X76.202 Y88.106 E2.41159
G1 X76.729 Y88.235 E2.42222
G1 X77.271 Y88.235 E2.43284
G1 X77.798 Y88.106 E2.44347
G1 X78.279 Y87.853 E2.45412
G1 X78.686 Y87.493 E2.46477
G1 X78.994 Y87.046 E2.47541
G1 X79.187 Y86.539 E2.48604
G1 X79.25 Y86.015 E2.49638
G1 X79.25 Y75.985 E2.69291
G1 X79.187 Y75.461 E2.70325
G1 X78.994 Y74.954 E2.71388
G1 X78.686 Y74.507 E2.72452
G1 X78.279 Y74.147 E2.73516
G1 X77.798 Y73.894 E2.74581
G1 X77.271 Y73.765 E2.75644
G1 X76.729 Y73.765 E2.76706
G1 X76.202 Y73.894 E2.7777
G1 X75.721 Y74.147 E2.78834
G1 X75.314 Y74.507 E2.79899
G0 F2625 X75.172 Y74.713
G0 X74.719 Y74.401
G0 X74.679 Y74.373
G0 X75.413 Y73.701
G0 X76.01 Y73.386
G0 X76.665 Y73.226
G0 X77.044 Y73.226
G0 X84.863 Y74.107
G0 X84.937 Y74.173
;TYPE:WALL-INNER
G1 F900 X84.56 Y74.72 E2.81201
G1 X84.324 Y75.34 E2.82501
G1 X84.25 Y75.955 E2.83715
G1 X84.25 Y86.045 E3.03485
G1 X84.324 Y86.66 E3.04699
G1 X84.56 Y87.28 E3.05999
G1 X84.937 Y87.827 E3.07301
G1 X85.435 Y88.267 E3.08603
G1 X86.024 Y88.577 E3.09907
G1 X86.669 Y88.735 E3.11208
G1 X87.331 Y88.735 E3.12505
G1 X87.976 Y88.577 E3.13806
G1 X88.565 Y88.267 E3.15111
G1 X89.063 Y87.827 E3.16413
G1 X89.44 Y87.28 E3.17714
G1 X89.676 Y86.66 E3.19014
G1 X89.75 Y86.045 E3.20228
G1 X89.75 Y75.955 E3.39999
G1 X89.676 Y75.34 E3.41212
G1 X89.44 Y74.72 E3.42512
G1 X89.063 Y74.173 E3.43814
G1 X88.565 Y73.733 E3.45116
G1 X87.976 Y73.423 E3.4642
G1 X87.331 Y73.265 E3.47722
G1 X86.669 Y73.265 E3.49019
G1 X86.024 Y73.423 E3.5032
G1 X85.435 Y73.733 E3.51624
G1 X84.937 Y74.173 E3.52926
G0 F2625 X85.314 Y74.507
;TYPE:WALL-OUTER
G1 F900 X85.006 Y74.954 E3.5399
G1 X84.813 Y75.461 E3.55053
G1 X84.75 Y75.985 E3.56087
G1 X84.75 Y86.015 E3.7574
G1 X84.813 Y86.539 E3.76774
G1 X85.006 Y87.046 E3.77837
G1 X85.314 Y87.493 E3.78901
G1 X85.721 Y87.853 E3.79966
G1 X86.202 Y88.106 E3.8103
G1 X86.729 Y88.235 E3.82094
G1 X87.271 Y88.235 E3.83156
G1 X87.798 Y88.106 E3.84219
G1 X88.279 Y87.853 E3.85284
G1 X88.686 Y87.493 E3.86348
G1 X88.994 Y87.046 E3.87412
G1 X89.187 Y86.539 E3.88475
G1 X89.25 Y86.015 E3.89509
G1 X89.25 Y75.985 E4.09162
G1 X89.187 Y75.461 E4.10196
G1 X88.994 Y74.954 E4.11259
G1 X88.686 Y74.507 E4.12323
G1 X88.279 Y74.147 E4.13388
G1 X87.798 Y73.894 E4.14453
G1 X87.271 Y73.765 E4.15516
G1 X86.729 Y73.765 E4.16578
G1 X86.202 Y73.894 E4.17641
G1 X85.721 Y74.147 E4.18706
G1 X85.314 Y74.507 E4.1977
G0 F2625 X85.172 Y74.713
G0 X84.719 Y74.401
G0 X84.679 Y74.373
G0 X85.413 Y73.701
G0 X86.01 Y73.386
G0 X86.665 Y73.226
G0 X87.335 Y73.226
G0 X94.223 Y75.341
G0 X94.32 Y75.364
;TYPE:WALL-INNER
G1 F900 X94.25 Y75.955 E4.20936
G1 X94.25 Y86.044 E4.40705
G1 X94.322 Y86.649 E4.41899
G1 X94.551 Y87.263 E4.43183
G1 X94.919 Y87.805 E4.44467
G1 X95.402 Y88.244 E4.45746
G1 X95.976 Y88.557 E4.47027
G1 X96.612 Y88.731 E4.48319
G1 X97.194 Y88.742 E4.49459
G1 X97.335 Y88.729 E4.49737
G1 X97.82 Y88.623 E4.5071
G1 X97.958 Y88.578 E4.50994
G1 X98.505 Y88.308 E4.52189
G1 X99.001 Y87.894 E4.53455
G1 X99.108 Y87.75 E4.53807
G1 X101.25 Y87.75 E4.58004
G1 X101.25 Y89.25 E4.60943
G1 X60.75 Y89.25 E5.403
G1 X60.75 Y72.75 E5.72631
G1 X101.25 Y72.75 E6.51988
G1 X101.25 Y74.25 E6.54927
G1 X99.108 Y74.25 E6.59124
G1 X99.002 Y74.107 E6.59473
G1 X98.506 Y73.693 E6.60739
G1 X97.959 Y73.423 E6.61934
G1 X97.821 Y73.378 E6.62218
G1 X97.336 Y73.272 E6.63191
G1 X97.183 Y73.257 E6.63492
G1 X96.622 Y73.271 E6.64592
G1 X95.963 Y73.448 E6.65929
G1 X95.389 Y73.767 E6.67216
G1 X94.908 Y74.208 E6.68494
G1 X94.545 Y74.753 E6.69777
G1 X94.32 Y75.364 E6.71053
G0 F2625 X94.81 Y75.481
;TYPE:WALL-OUTER
G1 F900 X94.75 Y75.985 E6.72048
G1 X94.75 Y86.015 E6.91701
G1 X94.811 Y86.531 E6.92719
G1 X94.998 Y87.032 E6.93767
G1 X95.299 Y87.475 E6.94816
G1 X95.694 Y87.834 E6.95862
G1 X96.164 Y88.09 E6.96911
G1 X96.684 Y88.232 E6.97967
G1 X97.175 Y88.242 E6.98929
G1 X97.257 Y88.234 E6.99091
G1 X97.689 Y88.14 E6.99957
G1 X97.769 Y88.114 E7.00122
G1 X98.23 Y87.886 E7.0113
G1 X98.635 Y87.548 E7.02163
G1 X98.857 Y87.25 E7.02891
G1 X101.75 Y87.25 E7.0856
G1 X101.75 Y89.75 E7.13459
G1 X60.25 Y89.75 E7.94775
G1 X60.25 Y72.25 E8.29065
G1 X101.75 Y72.25 E9.10382
G1 X101.75 Y74.75 E9.1528
G1 X98.857 Y74.75 E9.20949
G1 X98.636 Y74.453 E9.21674
G1 X98.231 Y74.115 E9.22708
G1 X97.77 Y73.887 E9.23716
G1 X97.69 Y73.861 E9.2388
G1 X97.258 Y73.767 E9.24747
G1 X97.165 Y73.758 E9.2493
G1 X96.694 Y73.769 E9.25853
G1 X96.152 Y73.915 E9.26953
G1 X95.684 Y74.175 E9.28002
G1 X95.291 Y74.536 E9.29047
G1 X94.994 Y74.981 E9.30096
G1 X94.81 Y75.481 E9.3114
G0 F2625 X94.781 Y75.729
G0 X94.235 Y75.663
G0 X94.185 Y75.656
G0 X94.51 Y74.735
G0 X94.878 Y74.182
G0 X95.366 Y73.735
G0 X95.948 Y73.411
G0 X96.617 Y73.232
G0 X96.822 Y73.232
G0 X101.024 Y73.447
;TYPE:SKIN
G1 F900 X100.551 Y72.974 E9.3245
G0 F2625 X99.844 Y72.974
G1 F900 X100.894 Y74.024 E9.3536
G0 F2625 X100.187 Y74.024
G1 F900 X99.137 Y72.974 E9.3827
G0 F2625 X98.43 Y72.974
G1 F900 X99.48 Y74.024 E9.41179
G1 X99.568 Y74.112
G0 F2625 X97.923 Y73.174
G0 X97.823 Y73.074
G1 F900 X96.366 Y73.032 E9.42805
G1 X95.154 Y73.234 E9.44175
G0 F2625 X94.188 Y72.974
G1 F900 X95.015 Y73.802 E9.46468
G0 F2625 X94.668 Y74.162
G1 F900 X93.48 Y72.974 E9.4976
G0 F2625 X92.773 Y72.974
G1 F900 X94.386 Y74.587 E9.5423
G0 F2625 X94.18 Y75.089
G1 F900 X92.066 Y72.974 E9.60089
G0 F2625 X91.359 Y72.974
G1 F900 X94.056 Y75.671 E9.67563
G0 F2625 X94.023 Y76.346
G1 F900 X90.652 Y72.974 E9.76905
G0 F2625 X89.945 Y72.974
G1 F900 X94.023 Y77.053 E9.88207
G0 F2625 X94.023 Y77.76
G1 F900 X89.238 Y72.974 E10.01468
G0 F2625 X88.531 Y72.974
G1 F900 X94.023 Y78.467 E10.16688
G0 F2625 X94.023 Y79.174
G1 F900 X89.748 Y74.899 E10.28534
G0 F2625 X89.959 Y75.817
G1 F900 X94.023 Y79.881 E10.39796
G0 F2625 X94.023 Y80.588
G1 F900 X89.974 Y76.539 E10.51016
G0 F2625 X89.974 Y77.246
G1 F900 X94.023 Y81.296 E10.62237
G0 F2625 X94.023 Y82.003
G1 F900 X89.974 Y77.953 E10.73459
G0 F2625 X89.974 Y78.66
G1 F900 X94.023 Y82.71 E10.8468
G0 F2625 X94.023 Y83.417
G1 F900 X89.974 Y79.367 E10.95901
G0 F2625 X89.974 Y80.074
G1 F900 X94.023 Y84.124 E11.07123
G0 F2625 X94.023 Y84.831
G1 F900 X89.974 Y80.782 E11.18343
G0 F2625 X89.974 Y81.489
G1 F900 X94.023 Y85.538 E11.29563
G0 F2625 X94.05 Y86.271
G1 F900 X89.974 Y82.196 E11.40856
G0 F2625 X89.974 Y82.903
G1 F900 X94.294 Y87.223 E11.52827
G1 X94.382 Y87.311
G0 F2625 X93.974 Y89.024
G1 F900 X89.974 Y85.024 E11.63911
G0 F2625 X89.974 Y84.317
G1 F900 X94.681 Y89.024 E11.76955
G0 F2625 X95.388 Y89.024
G1 F900 X89.974 Y83.61 E11.91957
G1 X89.886 Y83.522
G0 F2625 X89.974 Y85.731
G1 F900 X93.267 Y89.024 E12.01082
G0 F2625 X92.56 Y89.024
G1 F900 X89.933 Y86.397 E12.08362
G0 F2625 X89.798 Y86.969
G1 F900 X91.853 Y89.024 E12.14056
G0 F2625 X91.146 Y89.024
G1 F900 X89.584 Y87.463 E12.18383
G0 F2625 X89.296 Y87.882
G1 F900 X90.438 Y89.024 E12.21548
G0 F2625 X89.731 Y89.024
G1 F900 X88.941 Y88.234 E12.23737
G0 F2625 X88.78 Y88.78
G1 F900 X88.194 Y88.902 E12.24334
G1 X86.081 Y88.909 E12.26441
G0 F2625 X85.489 Y89.024
G1 F900 X79.974 Y83.51 E12.41722
G0 F2625 X79.974 Y82.802
G1 F900 X84.238 Y87.066 E12.53538
G0 F2625 X84.037 Y86.158
G1 F900 X79.974 Y82.095 E12.64797
G0 F2625 X79.974 Y81.388
G1 F900 X84.025 Y85.439 E12.76022
G0 F2625 X84.025 Y84.732
G1 F900 X79.974 Y80.681 E12.87248
G0 F2625 X79.974 Y79.974
G1 F900 X84.025 Y84.025 E12.98474
G0 F2625 X84.025 Y83.318
G1 F900 X79.974 Y79.267 E13.09699
G0 F2625 X79.974 Y78.56
G1 F900 X84.025 Y82.611 E13.20925
G0 F2625 X84.025 Y81.904
G1 F900 X79.974 Y77.853 E13.3215
G0 F2625 X79.974 Y77.146
G1 F900 X84.025 Y81.197 E13.43376
G0 F2625 X84.024 Y80.489
G1 F900 X79.974 Y76.438 E13.546
G0 F2625 X79.945 Y75.702
G1 F900 X84.024 Y79.782 E13.65904
G0 F2625 X84.024 Y79.075
G1 F900 X79.687 Y74.737 E13.77924
G1 X79.599 Y74.649
G0 F2625 X79.338 Y72.974
G1 F900 X84.024 Y77.66 E13.90909
G0 F2625 X84.024 Y76.953
G1 F900 X80.045 Y72.974 E14.01935
G0 F2625 X80.753 Y72.974
G1 F900 X84.024 Y76.246 E14.11001
G0 F2625 X84.067 Y75.582
G1 F900 X81.46 Y72.974 E14.18226
G0 F2625 X82.167 Y72.974
G1 F900 X84.206 Y75.014 E14.23878
G0 F2625 X84.422 Y74.523
G1 F900 X82.874 Y72.974 E14.28169
G0 F2625 X83.581 Y72.974
G1 F900 X84.711 Y74.104 E14.313
G0 F2625 X85.069 Y73.755
G1 F900 X84.288 Y72.974 E14.33464
G0 F2625 X85.235 Y73.214
G1 F900 X85.82 Y73.092 E14.34212
G1 X87.943 Y73.093 E14.36868
G0 F2625 X88.063 Y73.213
G0 X86.665 Y73.226
G0 X86.01 Y73.386
G0 X85.413 Y73.701
G0 X84.908 Y74.147
G0 X84.525 Y74.702
G0 X84.31 Y75.268
G0 X84.024 Y78.367
G1 F900 X78.631 Y72.974 E14.51812
G0 F2625 X78.101 Y73.151
G1 F900 X76.549 Y73.013 E14.54081
G1 X74.756 Y73.341 E14.56735
G0 F2625 X74.752 Y74.045
G1 F900 X73.681 Y72.974 E14.59703
G0 F2625 X72.974 Y72.974
G1 F900 X74.464 Y74.464 E14.63832
G0 F2625 X74.234 Y74.941
G1 F900 X72.267 Y72.974 E14.69282
G0 F2625 X71.56 Y72.974
G1 F900 X74.079 Y75.493 E14.76263
G0 F2625 X74.024 Y76.146
G1 F900 X70.853 Y72.974 E14.85051
G0 F2625 X70.146 Y72.974
G1 F900 X74.024 Y76.853 E14.95799
G0 F2625 X74.024 Y77.56
G1 F900 X69.439 Y72.974 E15.08505
G0 F2625 X68.732 Y72.974
G1 F900 X74.024 Y78.267 E15.23171
G0 F2625 X74.024 Y78.974
G1 F900 X69.588 Y74.538 E15.35463
G1 X69.5 Y74.45
G0 F2625 X69.932 Y75.589
G1 F900 X74.024 Y79.681 E15.46803
G0 F2625 X74.024 Y80.388
G1 F900 X69.975 Y76.339 E15.58023
G0 F2625 X69.975 Y77.046
G1 F900 X74.024 Y81.095 E15.69243
G0 F2625 X74.024 Y81.803
G1 F900 X69.975 Y77.753 E15.80464
G0 F2625 X69.975 Y78.46
G1 F900 X74.024 Y82.51 E15.91685
G0 F2625 X74.024 Y83.217
G1 F900 X69.975 Y79.167 E16.02907
G0 F2625 X69.975 Y79.874
G1 F900 X74.024 Y83.924 E16.14128
G0 F2625 X74.024 Y84.631
G1 F900 X69.975 Y80.581 E16.2535
G0 F2625 X69.975 Y81.288
G1 F900 X74.024 Y85.338 E16.36571
G0 F2625 X74.024 Y86.045
G1 F900 X69.975 Y81.996 E16.47791
G0 F2625 X69.975 Y82.703
G1 F900 X74.175 Y86.903 E16.59429
G1 X74.263 Y86.991
G0 F2625 X74.175 Y89.024
G1 F900 X69.975 Y84.824 E16.71068
G0 F2625 X69.975 Y84.117
G1 F900 X74.882 Y89.024 E16.84665
G0 F2625 X75.589 Y89.024
G1 F900 X69.975 Y83.41 E17.00222
G1 X69.887 Y83.322
G0 F2625 X69.975 Y85.531
G1 F900 X73.468 Y89.024 E17.09902
G0 F2625 X72.761 Y89.024
G1 F900 X69.955 Y86.218 E17.17677
G0 F2625 X69.853 Y86.824
G1 F900 X72.054 Y89.024 E17.23775
G0 F2625 X71.347 Y89.024
